!!!!SEGMENT: Fsc2010-Tribus_miraculis.krn
!!!id: Fsc2010
!!!AGN: Motet
!!!SCT: Seay (1979)
!!!voices: 6
!!!COM: Costanzo Festa
!!!OTL: Tribus miraculis
**kern	**text	**kern	**text	**kern	**text	**kern	**text	**kern	**text	**kern	**text
*part6	*part6	*part5	*part5	*part4	*part4	*part3	*part3	*part2	*part2	*part1	*part1
*staff6	*staff6	*staff5	*staff5	*staff4	*staff4	*staff3	*staff3	*staff2	*staff2	*staff1	*staff1
*I"Bassus II	*	*I"Bassus I	*	*I"Tenor II	*	*I"Tenor I	*	*I"Altus	*	*I"Superius	*
*I'B. II	*	*I'B. I	*	*I'T. II	*	*I'T. I	*	*I'A	*	*I'S	*
*clefF4	*	*clefF4	*	*clefGv2	*	*clefGv2	*	*clefGv2	*	*clefG2	*
*k[b-]	*	*k[b-]	*	*k[b-]	*	*k[b-]	*	*k[b-]	*	*k[b-]	*
*F:	*	*F:	*	*F:	*	*F:	*	*F:	*	*F:	*
*M2/1	*	*M2/1	*	*M2/1	*	*M2/1	*	*M2/1	*	*M2/1	*
*met(C|)	*	*met(C|)	*	*met(C|)	*	*met(C|)	*	*met(C|)	*	*met(C|)	*
!!section: Prima pars: Tribus miraculis
!!!OMD: Prima pars: Tribus miraculis
=1	=1	=1	=1	=1	=1	=1	=1	=1	=1	=1	=1
0r	.	0r	.	0r	.	0r	.	0d	Tri-	0r	.
=2	=2	=2	=2	=2	=2	=2	=2	=2	=2	=2	=2
0r	.	0G	Tri-	0r	.	0r	.	1d	-bus	0r	.
.	.	.	.	.	.	.	.	1B-y	mi-	.	.
=3	=3	=3	=3	=3	=3	=3	=3	=3	=3	=3	=3
0C	Tri-	1G	-bus	1r	.	0r	.	2.c	-ra-	0r	.
.	.	.	.	.	.	.	.	4B-y	.	.	.
.	.	1E	mi-	1c	Tri-	.	.	2A	.	.	.
.	.	.	.	.	.	.	.	2G	.	.	.
=4	=4	=4	=4	=4	=4	=4	=4	=4	=4	=4	=4
1FF	-bus	1F	-ra-	1.c	-bus	0r	.	1A	-cu-	1r	.
1C	mi-	1E	-cu-	.	.	.	.	1G	.	[1g	Tri-
.	.	.	.	2G	mi-	.	.	.	.	.	.
=5	=5	=5	=5	=5	=5	=5	=5	=5	=5	=5	=5
2BB-y	-ra-	[0D	-lis,	1B-y	-ra-	0r	.	0d	.	1g]	.
2GG	.	.	.	.	.	.	.	.	.	.	.
1D	-cu-	.	.	1A	-cu-	.	.	.	.	1f	-bus
=6	=6	=6	=6	=6	=6	=6	=6	=6	=6	=6	=6
[0GG	-lis,	0D]	.	1G	.	1r	.	1.B-y	.	1.g	mi-
.	.	.	.	2.d	.	1g	Tri-	.	.	.	.
.	.	.	.	.	.	.	.	4A	.	2a	-ra-
.	.	.	.	4c	.	.	.	4G	.	.	.
=7	=7	=7	=7	=7	=7	=7	=7	=7	=7	=7	=7
1GG]	.	0r	.	4B-y	.	1.g	-bus	1d	-lis,	2.b-y	-cu-
.	.	.	.	4A	.	.	.	.	.	.	.
.	.	.	.	4G	.	.	.	.	.	.	.
.	.	.	.	4F	.	.	.	.	.	4a	.
1r	.	.	.	2G	.	.	.	1r	.	2b-y	.
.	.	.	.	2A	.	2e	mi-	.	.	[2cc	.
=8	=8	=8	=8	=8	=8	=8	=8	=8	=8	=8	=8
0r	.	0r	.	1F	-lis,	1f	-ra-	1c	tri-	2cc]	.
.	.	.	.	.	.	.	.	.	.	4b-y	.
.	.	.	.	.	.	.	.	.	.	4a	.
.	.	.	.	1r	.	1e	.	1c	-bus	2.g	.
.	.	.	.	.	.	.	.	.	.	4a	.
=9	=9	=9	=9	=9	=9	=9	=9	=9	=9	=9	=9
0r	.	0r	.	2r	.	1d	.	1G	mi-	4b-y	.
.	.	.	.	.	.	.	.	.	.	4cc	.
.	.	.	.	2G	tri-	.	.	.	.	1b-y	.
.	.	.	.	1G	-bus	[1d	-cu-	1B-y	-ra-	.	.
.	.	.	.	.	.	.	.	.	.	4a	.
.	.	.	.	.	.	.	.	.	.	4g	.
=10	=10	=10	=10	=10	=10	=10	=10	=10	=10	=10	=10
0r	.	0r	.	1D	mi-	1d]	.	2B-y	-cu-	2.f	.
.	.	.	.	.	.	.	.	2.A	.	.	.
.	.	.	.	.	.	.	.	.	.	4g	.
.	.	.	.	1F	-ra-	[1c	-lis,	.	.	4a	.
.	.	.	.	.	.	.	.	4G	.	4b-y	.
.	.	.	.	.	.	.	.	4A	.	[2a	.
.	.	.	.	.	.	.	.	4B-y	.	.	.
=11	=11	=11	=11	=11	=11	=11	=11	=11	=11	=11	=11
0r	.	0r	.	1E	-cu-	1c]	.	4c	.	4a]	.
.	.	.	.	.	.	.	.	4B-y	.	4g	.
.	.	.	.	.	.	.	.	4A	.	1g	.
.	.	.	.	.	.	.	.	4G	.	.	.
.	.	.	.	1D	-lis,	[1d	tri-	1A	.	.	.
.	.	.	.	.	.	.	.	.	.	2f#i	.
=12	=12	=12	=12	=12	=12	=12	=12	=12	=12	=12	=12
1G	tri-	1r	.	0r	.	2d]	.	1.B-y	.	1g	-lis,
.	.	.	.	.	.	2e	-bus	.	.	.	.
[1F	.	1D	tri-	.	.	2.f	mi-	.	.	1r	.
.	.	.	.	.	.	.	.	4A	.	.	.
.	.	.	.	.	.	4e	.	4G	.	.	.
=13	=13	=13	=13	=13	=13	=13	=13	=13	=13	=13	=13
2F]	.	2D	-bus	1r	.	2f	.	2A	.	0r	.
2D	.	2GG	mi-	.	.	1g	-ra-	2B-y	.	.	.
1E	-bus	2C	-ra-	2.G	mi-	.	.	1c	.	.	.
.	.	2C	-cu-	.	.	4f	.	.	.	.	.
.	.	.	.	4A	.	4e	.	.	.	.	.
=14	=14	=14	=14	=14	=14	=14	=14	=14	=14	=14	=14
1F	mi-	[0BB-y	-lis,	4B-y	.	2.d	.	0F	.	1r	.
.	.	.	.	4c	.	.	.	.	.	.	.
.	.	.	.	1B-y	.	.	.	.	.	.	.
.	.	.	.	.	.	4e	.	.	.	.	.
[1D	-ra-	.	.	.	.	4f	.	.	.	1d	tri-
.	.	.	.	.	.	4g	.	.	.	.	.
.	.	.	.	4A	.	[2f	.	.	.	.	.
.	.	.	.	4G	.	.	.	.	.	.	.
=15	=15	=15	=15	=15	=15	=15	=15	=15	=15	=15	=15
1D]	.	1BB-]	.	2.F	.	2f]	.	1B-y	.	1.f	-bus
.	.	.	.	.	.	4e	.	.	.	.	.
.	.	.	.	4G	.	4d	.	.	.	.	.
1F	-cu-	2r	.	4A	.	2.c	.	2A	.	.	.
.	.	.	.	4B-y	.	.	.	.	.	.	.
.	.	2FF	tri-	[2A	.	.	.	[2c	.	2f	mi-
.	.	.	.	.	.	4d	.	.	.	.	.
=16	=16	=16	=16	=16	=16	=16	=16	=16	=16	=16	=16
2E	.	1C	-bus	4A]	.	4e	.	4c]	.	2.g	-ra-
.	.	.	.	4G	.	4f	.	4B-y	.	.	.
2C	.	.	.	1G	-ra-	2.e	.	2G	.	.	.
.	.	.	.	.	.	.	.	.	.	4a	.
1D	-lis	1BB-y	mi-	.	.	.	.	1d	.	4b-y	.
.	.	.	.	.	.	4d	.	.	.	4cc	.
.	.	.	.	2F	-cu-	[2d	-cu-	.	.	[2b-y	.
=17	=17	=17	=17	=17	=17	=17	=17	=17	=17	=17	=17
1r	.	2E-i	-ra-	1G	-lis	2d]	.	2B-y	.	2b-]	.
.	.	2E-i	-cu-	.	.	2c	.	2c	.	4a	.
.	.	.	.	.	.	.	.	.	.	4g	.
2r	.	[1D	.	2r	.	[1d	-lis	2A	.	2.f	.
2D	or-	.	.	[2A	or-	.	.	[2F	.	.	.
.	.	.	.	.	.	.	.	.	.	4g	.
=18	=18	=18	=18	=18	=18	=18	=18	=18	=18	=18	=18
1F	-na-	1D]	.	2A]	.	0d_	.	4F]	.	4a	.
.	.	.	.	.	.	.	.	4G	.	4b-y	.
.	.	.	.	2F	-na-	.	.	2A	.	2.a	.
1G	-tum	1GG	.	1B-y	-tem	.	.	4B-y	.	.	.
.	.	.	.	.	.	.	.	4G	.	4g	.
.	.	.	.	.	.	.	.	[2d	.	[2g	-cu-
=19	=19	=19	=19	=19	=19	=19	=19	=19	=19	=19	=19
1A	di-	1D	-lis	2A	di-	0d_	.	4d]	.	2g]	.
.	.	.	.	.	.	.	.	4c	.	.	.
.	.	.	.	1d	.	.	.	2A	.	2f#i	.
[1G	-em	1r	.	.	.	.	.	1B-y	-lis	[1g	-lis
.	.	.	.	2G	.	.	.	.	.	.	.
=20	=20	=20	=20	=20	=20	=20	=20	=20	=20	=20	=20
1G]	.	0GG	or-	2.B-y	.	1d]	.	2r	.	0g]	.
.	.	.	.	.	.	.	.	2G	or-	.	.
.	.	.	.	4c	.	.	.	.	.	.	.
1G	san-	.	.	2d	.	1r	.	2.B-y	-na-	.	.
.	.	.	.	[2B-y	.	.	.	.	.	.	.
.	.	.	.	.	.	.	.	4c	.	.	.
=21	=21	=21	=21	=21	=21	=21	=21	=21	=21	=21	=21
1D	-ctum	1BB-y	-na-	4B-]	.	0r	.	1d	.	1r	.
.	.	.	.	4A	.	.	.	.	.	.	.
.	.	.	.	4G	.	.	.	.	.	.	.
.	.	.	.	4F	.	.	.	.	.	.	.
1G	.	1C	-tum	2E	.	.	.	1c	-tum	2r	.
.	.	.	.	2G	.	.	.	.	.	2e	or-
=22	=22	=22	=22	=22	=22	=22	=22	=22	=22	=22	=22
2r	.	0D	di-	1F	-em,	0r	.	1.A	di-	2.f	-na-
2D	or-	.	.	.	.	.	.	.	.	.	.
.	.	.	.	.	.	.	.	.	.	4g	.
2.F	-na-	.	.	1r	.	.	.	.	.	2a	.
.	.	.	.	.	.	.	.	2B-y	.	2f	-tum
4G	.	.	.	.	.	.	.	.	.	.	.
=23	=23	=23	=23	=23	=23	=23	=23	=23	=23	=23	=23
2A	.	0C	.	0r	.	2r	.	0c	-em	2e	di-
2G	-tum	.	.	.	.	2G	or-	.	.	1g	.
2E	di-	.	.	.	.	2G	-na-	.	.	.	.
[2G	.	.	.	.	.	2G	-tum	.	.	4f	.
.	.	.	.	.	.	.	.	.	.	4e	.
=24	=24	=24	=24	=24	=24	=24	=24	=24	=24	=24	=24
2G]	.	0BB-y	.	2r	.	2.B-y	di-	2r	.	1d	-em,
4F	.	.	.	2D	or-	.	.	2.d	san-	.	.
4E	.	.	.	.	.	4c	.	.	.	.	.
1D	.	.	.	2.F	-na-	1d	.	.	.	1r	.
.	.	.	.	.	.	.	.	4e	.	.	.
.	.	.	.	.	.	.	.	2f	.	.	.
.	.	.	.	4G	.	.	.	.	.	.	.
=25	=25	=25	=25	=25	=25	=25	=25	=25	=25	=25	=25
1E	-em	0C	.	2A	.	0c	-em,	2e	.	2r	.
.	.	.	.	2G	-tum	.	.	2.g	.	2g	or-
[1G	san-	.	.	2E	di-	.	.	.	.	2g	-na-
.	.	.	.	.	.	.	.	4f	.	.	.
.	.	.	.	[2G	.	.	.	2e	.	2g	-tum
=26	=26	=26	=26	=26	=26	=26	=26	=26	=26	=26	=26
1G]	.	0GG	.	2G]	.	2r	.	4d	.	2.b-y	di-
.	.	.	.	.	.	.	.	4c	.	.	.
.	.	.	.	4F	.	2d	or-	4B-y	.	.	.
.	.	.	.	4E	.	.	.	4A	.	4cc	.
1G	-ctum	.	.	1D	.	2d	-na-	1B-y	.	1dd	.
.	.	.	.	.	.	2d	-tum	.	.	.	.
=27	=27	=27	=27	=27	=27	=27	=27	=27	=27	=27	=27
2E	co-	1C	-em,	2C	-em	2.e	di-	1c	-ctum	2.g	-em
2.G	.	.	.	2c	san-	.	.	.	.	.	.
.	.	.	.	.	.	4f	.	.	.	4a	.
.	.	2r	.	2B-y	.	1g	.	2d	co-	2b-y	.
4F	.	.	.	.	.	.	.	.	.	.	.
4E	.	2C	or-	[2G	.	.	.	[2c	.	2cc	.
4D	.	.	.	.	.	.	.	.	.	.	.
=28	=28	=28	=28	=28	=28	=28	=28	=28	=28	=28	=28
1C	.	2.E	-na-	4G]	.	1e	-em	2c]	.	2g	.
.	.	.	.	4F	.	.	.	.	.	.	.
.	.	.	.	4G	.	.	.	2.g	-li-	1cc	san-
.	.	4F	.	4A	.	.	.	.	.	.	.
1GG	-li-	1G	-tum	1B-y	.	1d	san-	.	.	.	.
.	.	.	.	.	.	.	.	4f	.	.	.
.	.	.	.	.	.	.	.	2d	.	2b-y	.
=29	=29	=29	=29	=29	=29	=29	=29	=29	=29	=29	=29
0C	-mus:	1E	di-	1G	.	1c	-ctum	0e	-mus:	0cc	-ctum
.	.	1G	-em	[1c	-ctum	2.g	co-	.	.	.	.
.	.	.	.	.	.	4f	.	.	.	.	.
=30	=30	=30	=30	=30	=30	=30	=30	=30	=30	=30	=30
0r	.	1A	san-	2c]	.	4e	.	0r	.	1r	.
.	.	.	.	.	.	4d	.	.	.	.	.
.	.	.	.	2c	co-	1f	.	.	.	.	.
.	.	[1F	-ctum	[1A	-li-	.	.	.	.	2.cc	co-
.	.	.	.	.	.	4e	.	.	.	.	.
.	.	.	.	.	.	4d	.	.	.	4b-y	.
=31	=31	=31	=31	=31	=31	=31	=31	=31	=31	=31	=31
0r	.	2F]	.	2A]	.	2c	.	1r	.	4a	.
.	.	.	.	.	.	.	.	.	.	4g	.
.	.	2D	co-	2F	.	2d	-li-	.	.	1b-y	.
.	.	1E-X	-li-	2G	.	1B-y	-mus:	1G	ho-	.	.
.	.	.	.	[2B-y	.	.	.	.	.	4a	.
.	.	.	.	.	.	.	.	.	.	4g	.
=32	=32	=32	=32	=32	=32	=32	=32	=32	=32	=32	=32
0r	.	0D	-mus:	2B-]	.	0r	.	1.d	.	2f	.
.	.	.	.	4A	.	.	.	.	.	1g	-li-
.	.	.	.	4G	.	.	.	.	.	.	.
.	.	.	.	1A	.	.	.	.	.	.	.
.	.	.	.	.	.	.	.	2d	-di-	2f#i	.
=33	=33	=33	=33	=33	=33	=33	=33	=33	=33	=33	=33
1r	.	1.B-y	ho-	1G	-mus:	0r	.	1d	-e	1g	.
1GG	ho-	.	.	2r	.	.	.	1r	.	2.d	.
.	.	2G	-di-	[2D	ho-	.	.	.	.	.	.
.	.	.	.	.	.	.	.	.	.	4e	.
=34	=34	=34	=34	=34	=34	=34	=34	=34	=34	=34	=34
1.D	.	1A	-e	4D]	.	0r	.	2r	.	4f	.
.	.	.	.	4E	.	.	.	.	.	4g	.
.	.	.	.	4F	.	.	.	2d	stel-	2a	.
.	.	.	.	4G	.	.	.	.	.	.	.
.	.	[1F	stel-	1A	.	.	.	2d	-la	2d	.
2D	-di-	.	.	.	.	.	.	4c	.	[2dd	.
.	.	.	.	.	.	.	.	4B-y	.	.	.
=35	=35	=35	=35	=35	=35	=35	=35	=35	=35	=35	=35
1D	-e	2F]	.	2D	-di-	0r	.	2A	.	4dd]	.
.	.	.	.	.	.	.	.	.	.	4cc	.
.	.	2D	-la	1d	.	.	.	2B-y	ma-	1b-y	.
1r	.	1E-X	ma-	.	.	.	.	1G	-gos	.	.
.	.	.	.	2c	.	.	.	.	.	4a	.
.	.	.	.	.	.	.	.	.	.	4g	.
=36	=36	=36	=36	=36	=36	=36	=36	=36	=36	=36	=36
1r	.	2D	-gos	0d	.	0r	.	2r	.	1f	.
.	.	2BB-y	du-	.	.	.	.	1B-y	du-	.	.
[1D	stel-	2GG	.	.	.	.	.	.	.	2.g	.
.	.	[2BB-y	.	.	.	.	.	4A	.	.	.
.	.	.	.	.	.	.	.	4G	.	4f	.
=37	=37	=37	=37	=37	=37	=37	=37	=37	=37	=37	=37
1D]	.	2BB-]	.	1B-y	-e	1r	.	2F	.	1d	-mus:
.	.	4AA	.	.	.	.	.	1G	.	.	.
.	.	4GG	.	.	.	.	.	.	.	.	.
1C	-la	1AA	.	1r	.	2r	.	.	.	1r	.
.	.	.	.	.	.	[2c	stel-	2F#i	.	.	.
=38	=38	=38	=38	=38	=38	=38	=38	=38	=38	=38	=38
1D	ma-	1GG	-xit	0r	.	2c]	.	2G	.	0r	.
.	.	.	.	.	.	2B-y	-la	2d	.	.	.
1C	.	2r	.	.	.	2A	ma-	2.e	.	.	.
.	.	[2G	du-	.	.	2G	-gos	.	.	.	.
.	.	.	.	.	.	.	.	4f	.	.	.
=39	=39	=39	=39	=39	=39	=39	=39	=39	=39	=39	=39
1BB-y	-gos	2G]	.	0r	.	2.B-y	du-	1d	.	0r	.
.	.	1F	.	.	.	.	.	.	.	.	.
.	.	.	.	.	.	4A	.	.	.	.	.
1C	du-	.	.	.	.	1G	.	1c	-xit,	.	.
.	.	2E	.	.	.	.	.	.	.	.	.
=40	=40	=40	=40	=40	=40	=40	=40	=40	=40	=40	=40
1.D	.	2.A	.	1r	.	1F	-xit	2r	.	1d	ho-
.	.	.	.	.	.	.	.	2A	du-	.	.
.	.	4G	.	.	.	.	.	.	.	.	.
.	.	2F	.	2r	.	1r	.	2B-y	-xit	2d	-di-
2C	.	2E	.	[2G	stel-	.	.	2c	ad	2e	-e
=41	=41	=41	=41	=41	=41	=41	=41	=41	=41	=41	=41
2.BB-y	.	1D	.	2G]	.	1.B-y	ad	1d	pre-	1f	stel-
.	.	.	.	2F	-la	.	.	.	.	.	.
4AA	.	.	.	.	.	.	.	.	.	.	.
1GG	.	1G	.	2E	ma-	.	.	2B-y	-se-	1g	-la
.	.	.	.	2D	-gos	2B-y	pre-	[2d	-pi-	.	.
=42	=42	=42	=42	=42	=42	=42	=42	=42	=42	=42	=42
1FF	-xit,	1C	.	2.F	du-	1c	-se-	4d]	.	2.a	ma-
.	.	.	.	.	.	.	.	4c	.	.	.
.	.	.	.	.	.	.	.	1c	.	.	.
.	.	.	.	4E	.	.	.	.	.	4g	.
1r	.	1F	.	1D	.	1d	.	.	.	4f	.
.	.	.	.	.	.	.	.	.	.	4e	.
.	.	.	.	.	.	.	.	2Bni	.	[2f	.
=43	=43	=43	=43	=43	=43	=43	=43	=43	=43	=43	=43
1r	.	0G	.	1C	-xit	2G	-pi-	1c	.	2f]	.
.	.	.	.	.	.	1c	.	.	.	2e	.
1GG	ad	.	.	1r	.	.	.	1g	.	1d	.
.	.	.	.	.	.	2Bni	.	.	.	.	.
=44	=44	=44	=44	=44	=44	=44	=44	=44	=44	=44	=44
1AA	pre-	1C	-xit,	1r	.	1c	.	1e	-um,	2c	-gos
.	.	.	.	.	.	.	.	.	.	2e	du-
[1BB-y	.	2r	.	[1F	ad	2.f	.	1r	.	2d	.
.	.	2D	du-	.	.	.	.	.	.	[2f	.
.	.	.	.	.	.	4e	.	.	.	.	.
=45	=45	=45	=45	=45	=45	=45	=45	=45	=45	=45	=45
2BB-]	.	2BB-y	.	2F]	.	2d	.	0r	.	4f]	.
.	.	.	.	.	.	.	.	.	.	4g	.
2AA	.	2C	.	2F	pre-	2c	.	.	.	2a	.
1GG	.	2.D	.	1G	-se-	2B-y	.	.	.	1d	-xit
.	.	.	.	.	.	[2d	.	.	.	.	.
.	.	4E	.	.	.	.	.	.	.	.	.
=46	=46	=46	=46	=46	=46	=46	=46	=46	=46	=46	=46
1FF	-se-	2F	-xit	1A	-pi-	2d]	.	2.f	ad	1r	.
.	.	2C	ad	.	.	2c	.	.	.	.	.
.	.	.	.	.	.	.	.	4e	.	.	.
2.GG	-pi-	2.G	pre-	2D	.	2.B-y	.	4d	.	[1g	ad
.	.	.	.	.	.	.	.	4c	.	.	.
.	.	.	.	[2B-y	.	.	.	[2d	.	.	.
4AA	.	4F	.	.	.	4A	.	.	.	.	.
=47	=47	=47	=47	=47	=47	=47	=47	=47	=47	=47	=47
2BB-y	.	2D	.	4B-]	.	1G	-um,	2d]	.	1g]	.
.	.	.	.	4A	.	.	.	.	.	.	.
2C	.	2E	-se-	1G	.	.	.	4c	.	.	.
.	.	.	.	.	.	.	.	4B-y	.	.	.
1AA	.	1C	-pi-	.	.	1r	.	1c	pre-	1a	pre-
.	.	.	.	2F#i	.	.	.	.	.	.	.
=48	=48	=48	=48	=48	=48	=48	=48	=48	=48	=48	=48
1GG	-um,	1D	-um,	1G	-um,	1d	ad	2B-y	-se-	1b-y	-se-
.	.	.	.	.	.	.	.	2d	-pi-	.	.
1r	.	2r	.	1c	[ad	1e	pre-	4c	.	2g	-pi-
.	.	.	.	.	.	.	.	4B-y	.	.	.
.	.	2AA	ad	.	.	.	.	4A	.	[2a	.
.	.	.	.	.	.	.	.	4G	.	.	.
=49	=49	=49	=49	=49	=49	=49	=49	=49	=49	=49	=49
2r	.	1D	pre-	2.d	pre-	2.f	-se-	1F	-um:	2a]	.
1D	ad	.	.	.	.	.	.	.	.	4g	.
.	.	.	.	4c	.	4e	.	.	.	4f	.
.	.	2GG	-se-	4B-y	.	4d	.	1r	.	2.g	.
.	.	.	.	4A	.	4c	.	.	.	.	.
2GG	pre-	2G	-pi-	[2B-y	.	[2d	.	.	.	.	.
.	.	.	.	.	.	.	.	.	.	4f	.
=50	=50	=50	=50	=50	=50	=50	=50	=50	=50	=50	=50
2D	-se-	2F	.	2B-]	.	2d]	.	0r	.	2d	.
2E	-pi-	2E	.	4A	.	2c	-pi-	.	.	1g	.
.	.	.	.	4G	.	.	.	.	.	.	.
1F	-um:	1D	.	1A	.	1d	-um:	.	.	.	.
.	.	.	.	.	.	.	.	.	.	2f#i	.
=51	=51	=51	=51	=51	=51	=51	=51	=51	=51	=51	=51
1D	.	0GG	-um:	1.G	-se-	1.B-y	ho-	1.d	ho-	0g	-um:
1D	ho-	.	.	.	.	.	.	.	.	.	.
.	.	.	.	4F	.	2B-y	-di-	2G	-di-	.	.
.	.	.	.	4E	.	.	.	.	.	.	.
=52	=52	=52	=52	=52	=52	=52	=52	=52	=52	=52	=52
1.G	.	1GG	ho-	1D	.	1B-y	-e	1d	-e	1r	.
.	.	[1C	.	1C	.	1c	vi-	1e	.	1g	ho-
2G	-di-	.	.	.	.	.	.	.	.	.	.
=53	=53	=53	=53	=53	=53	=53	=53	=53	=53	=53	=53
1G	-e	2C]	.	2.E	-pi-	1c	-num,	[0e	vi-	1.cc	.
.	.	2C	-di-	.	.	.	.	.	.	.	.
.	.	.	.	4F	.	.	.	.	.	.	.
1E	vi-	1C	-e	1G	.	2r	.	.	.	.	.
.	.	.	.	.	.	2c	ho-	.	.	2cc	-di-
=54	=54	=54	=54	=54	=54	=54	=54	=54	=54	=54	=54
1C	-vum,	1AA	vi-	2.A	.	2c	-di-	1e]	.	0cc	-e
.	.	.	.	.	.	2c	-e	.	.	.	.
.	.	.	.	4B-y	.	.	.	.	.	.	.
[1F	ho-	1FF	-num	2c	.	1A	vi-	1f	-num	.	.
.	.	.	.	2A	.	.	.	.	.	.	.
=55	=55	=55	=55	=55	=55	=55	=55	=55	=55	=55	=55
2F]	.	1BB-y	.	1B-y	.	2F	.	2r	.	1dd	vi-
2F	-di-	.	.	.	.	1B-y	.	2.F	ex	.	.
1F	-e	1FF	ex	1c	-um:]	.	.	.	.	1cc	-num
.	.	.	.	.	.	.	.	4G	.	.	.
.	.	.	.	.	.	2A	.	2A	.	.	.
=56	=56	=56	=56	=56	=56	=56	=56	=56	=56	=56	=56
1D	vi-	0GG	a-	1r	.	2.B-y	-num	2.G	a-	2r	.
.	.	.	.	.	.	.	.	.	.	2b-y	ex
.	.	.	.	.	.	4c	.	4F	.	.	.
1BB-y	-num	.	.	1G	ho-	2d	.	2D	.	1b-y	a-
.	.	.	.	.	.	2G	ex	2E	.	.	.
=57	=57	=57	=57	=57	=57	=57	=57	=57	=57	=57	=57
1r	.	0FF	-qua	1.c	.	2A	a-	2F	-qua	2.a	-qua
.	.	.	.	.	.	1c	.	1A	fa-	.	.
.	.	.	.	.	.	.	.	.	.	4g	.
1F	ex	.	.	.	.	.	.	.	.	4a	.
.	.	.	.	.	.	.	.	.	.	4b-y	.
.	.	.	.	2c	-di-	4B-y	.	4G	.	(2cc	.
.	.	.	.	.	.	4A	.	4F	.	.	.
=58	=58	=58	=58	=58	=58	=58	=58	=58	=58	=58	=58
1G	a-	1C	fa-	0c	-e	1G	-qua	2.E	.	2cc)	.
.	.	.	.	.	.	.	.	.	.	4b-y	.
.	.	.	.	.	.	.	.	4F	.	4a	.
1C	-qua,	1E	.	.	.	1r	.	1G	.	1g	.
=59	=59	=59	=59	=59	=59	=59	=59	=59	=59	=59	=59
1F	ho-	2.D	.	1d	vi-	2r	.	0A	.	[0f	fa-
.	.	.	.	.	.	4F	fa-	.	.	.	.
.	.	4E	.	.	.	4G	.	.	.	.	.
2F	-di-	2F	.	1c	-vum	4A	.	.	.	.	.
.	.	.	.	.	.	4B-y	.	.	.	.	.
2F	-e	2FF	.	.	.	4c	.	.	.	.	.
.	.	.	.	.	.	4A	.	.	.	.	.
=60	=60	=60	=60	=60	=60	=60	=60	=60	=60	=60	=60
1D	vi-	2.BB-y	.	2r	.	2B-y	.	1F	.	1f]	.
.	.	.	.	2B-y	ex	1F	.	.	.	.	.
.	.	4AA	.	.	.	.	.	.	.	.	.
1BB-y	-num,	1GG	-ctum	1B-y	a-	.	.	1G	.	1b-y	.
.	.	.	.	.	.	2E	-ctum	.	.	.	.
=61	=61	=61	=61	=61	=61	=61	=61	=61	=61	=61	=61
1r	.	0FF	est,	2.A	.	0F	est,	2A	.	2.cc	.
.	.	.	.	.	.	.	.	2F	.	.	.
.	.	.	.	4G	.	.	.	.	.	4b-y	.
1C	ex	.	.	4A	.	.	.	2.c	.	1a	-ctum
.	.	.	.	4B-y	.	.	.	.	.	.	.
.	.	.	.	[2c	.	.	.	.	.	.	.
.	.	.	.	.	.	.	.	4d	.	.	.
=62	=62	=62	=62	=62	=62	=62	=62	=62	=62	=62	=62
0C	a-	1r	.	2c]	.	[0c	.	2e	.	0g	est
.	.	.	.	4B-y	.	.	.	1f	.	.	.
.	.	.	.	4A	.	.	.	.	.	.	.
.	.	[1C	fa-	1G	-qua	.	.	.	.	.	.
.	.	.	.	.	.	.	.	2e	.	.	.
=63	=63	=63	=63	=63	=63	=63	=63	=63	=63	=63	=63
0FF	-qua	1C]	.	[0F	fa-	1c]	.	0f	-ctum	1r	.
.	.	1C	-ctum	.	.	[1f	fa-	.	.	1a	ad
=64	=64	=64	=64	=64	=64	=64	=64	=64	=64	=64	=64
2.BB-y	fa-	1.D	est	1F]	.	1f]	.	0d	est	1.b-y	nu-
4AA	.	.	.	.	.	.	.	.	.	.	.
1GG	.	.	.	1B-y	.	2.g	.	.	.	.	.
.	.	2D	ad	.	.	.	.	.	.	4a	.
.	.	.	.	.	.	4f	.	.	.	4g	.
=65	=65	=65	=65	=65	=65	=65	=65	=65	=65	=65	=65
1C	-ctum	1E	nu-	2.c	.	1e	-ctum	1r	.	2a	.
.	.	.	.	.	.	.	.	.	.	1g	-pti-
.	.	.	.	4B-y	.	.	.	.	.	.	.
1D	.	1F	-pti-	1A	-ctum	1d	est	1A	ad	.	.
.	.	.	.	.	.	.	.	.	.	2f#i	.
=66	=66	=66	=66	=66	=66	=66	=66	=66	=66	=66	=66
0GG	est	1.D	.	0G	est	2r	.	1.B-y	nu-	0g	-as:
.	.	.	.	.	.	2d	ad	.	.	.	.
.	.	.	.	.	.	2d	nu-	.	.	.	.
.	.	2G	.	.	.	4c	.	4A	.	.	.
.	.	.	.	.	.	4B-y	.	4G	.	.	.
=67	=67	=67	=67	=67	=67	=67	=67	=67	=67	=67	=67
0r	.	2F	.	1r	.	2c	.	2A	.	0r	.
.	.	2E	.	.	.	2G	.	1G	-pti-	.	.
.	.	1D	.	1A	ad	[1d	-pti-	.	.	.	.
.	.	.	.	.	.	.	.	2F#i	.	.	.
=68	=68	=68	=68	=68	=68	=68	=68	=68	=68	=68	=68
1r	.	0GG	-as:	1.B-y	nu-	2d]	.	2G	-as,	0r	.
.	.	.	.	.	.	4G	.	2d	ad	.	.
.	.	.	.	.	.	4A	.	.	.	.	.
1G	ad	.	.	.	.	4B-y	.	2d	nu-	.	.
.	.	.	.	.	.	4c	.	.	.	.	.
.	.	.	.	4A	.	[2d	.	4c	.	.	.
.	.	.	.	4G	.	.	.	4B-y	.	.	.
=69	=69	=69	=69	=69	=69	=69	=69	=69	=69	=69	=69
2F	nu-	0r	.	2A	.	4d]	.	2c	.	0r	.
.	.	.	.	.	.	4c	.	.	.	.	.
2E	.	.	.	1G	-pti-	1c	.	2G	.	.	.
1D	.	.	.	.	.	.	.	1d	.	.	.
.	.	.	.	2F	.	2Bni	.	.	.	.	.
=70	=70	=70	=70	=70	=70	=70	=70	=70	=70	=70	=70
0C	-pti-	0r	.	1G	-as:	2.c	-as:	1.e-X	-pti-	1r	.
.	.	.	.	.	.	4B-y	.	.	.	.	.
.	.	.	.	2r	.	1G	.	.	.	1g	ho-
.	.	.	.	2c	ho-	.	.	4d	.	.	.
.	.	.	.	.	.	.	.	4c	.	.	.
=71	=71	=71	=71	=71	=71	=71	=71	=71	=71	=71	=71
1GG	-as:	0r	.	2B-y	-di-	2r	.	2d	.	1.dd	.
.	.	.	.	2.d	.	2g	ho-	2G	.	.	.
1r	.	.	.	.	.	2f	-di-	1d	.	.	.
.	.	.	.	4c	.	.	.	.	.	.	.
.	.	.	.	4B-y	.	[2g	-e	.	.	2dd	-di-
.	.	.	.	4A	.	.	.	.	.	.	.
=72	=72	=72	=72	=72	=72	=72	=72	=72	=72	=72	=72
1r	.	0r	.	1G	-e	2g]	.	0B-y	.	0dd	-e
.	.	.	.	.	.	4f	.	.	.	.	.
.	.	.	.	.	.	4e	.	.	.	.	.
[1GG	ho-	.	.	2r	.	[1d	.	.	.	.	.
.	.	.	.	2G	a	.	.	.	.	.	.
=73	=73	=73	=73	=73	=73	=73	=73	=73	=73	=73	=73
2GG]	.	0r	.	1B-y	Jo-	1d]	.	1G	-as,	2r	.
2GG	-di-	.	.	.	.	.	.	.	.	2dd	a
2AA	-e	.	.	2A	-han-	1r	.	2r	.	2cc	Jo-
[2BB-y	a	.	.	2F	-ne	.	.	2F	ho-	[2dd	-an-
=74	=74	=74	=74	=74	=74	=74	=74	=74	=74	=74	=74
2BB-]	.	0r	.	1G	Chri-	2r	.	1B-y	-di-	2dd]	.
2GG	Jo-	.	.	.	.	2d	a	.	.	4cc	.
.	.	.	.	.	.	.	.	.	.	4b-y	.
2AA	-han-	.	.	2F	.	1f	Jo-	2A	-e	2cc	.
2BB-y	-ne	.	.	2D	.	.	.	2F	a	[2dd	.
=75	=75	=75	=75	=75	=75	=75	=75	=75	=75	=75	=75
2.C	Chri-	1r	.	2.E	.	2e	-han-	2c	Jo-	4dd]	.
.	.	.	.	.	.	.	.	.	.	4cc	.
.	.	.	.	.	.	2c	.	2.G	-han-	1cc	.
4BB-y	.	.	.	4F	.	.	.	.	.	.	.
1GG	.	1D	ho-	1G	.	2.d	.	.	.	.	.
.	.	.	.	.	.	.	.	4A	.	.	.
.	.	.	.	.	.	.	.	2B-y	.	2bni	.
.	.	.	.	.	.	4e	.	.	.	.	.
=76	=76	=76	=76	=76	=76	=76	=76	=76	=76	=76	=76
[0FF	-stus,	1.A	.	[0C	-stus	1f	-ne,	2A	-ne	1.cc	-ne
.	.	.	.	.	.	.	.	2.F	Chri-	.	.
.	.	.	.	.	.	2r	.	.	.	.	.
.	.	.	.	.	.	.	.	4G	.	.	.
.	.	2A	-di-	.	.	[2f	a	4A	.	[2a	Chri-
.	.	.	.	.	.	.	.	4B-y	.	.	.
=77	=77	=77	=77	=77	=77	=77	=77	=77	=77	=77	=77
1FF]	.	0A	-e	1C]	.	2f]	.	2.c	.	2a]	.
.	.	.	.	.	.	2f	Jo-	.	.	2f	.
.	.	.	.	.	.	.	.	4B-y	.	.	.
2r	.	.	.	1r	.	2e	-han-	2c	.	2.a	.
[2F	ho-	.	.	.	.	[2f	.	2F	.	.	.
.	.	.	.	.	.	.	.	.	.	4g	.
=78	=78	=78	=78	=78	=78	=78	=78	=78	=78	=78	=78
2F]	.	2r	.	1c	ba-	4f]	.	1f	-stus	4a	.
.	.	.	.	.	.	4g	.	.	.	4b-y	.
2F	-di-	2A	a	.	.	4a	.	.	.	1cc	.
.	.	.	.	.	.	4f	.	.	.	.	.
2E	-e	2G	Jo-	1c	-pti-	2g	.	1r	.	.	.
[2F	a	[2A	-han-	.	.	2c	-ne	.	.	[2a	.
=79	=79	=79	=79	=79	=79	=79	=79	=79	=79	=79	=79
2F]	.	2A]	.	1d	-za-	1f	Chri-	0r	.	4a]	.
.	.	.	.	.	.	.	.	.	.	4f	.
2D	Jo-	4G	.	.	.	.	.	.	.	1b-y	.
.	.	4F	.	.	.	.	.	.	.	.	.
2E	-han-	2G	.	1c	.	2e	.	.	.	.	.
2F	.	[2A	-ne	.	.	2c	.	.	.	2a	.
=80	=80	=80	=80	=80	=80	=80	=80	=80	=80	=80	=80
2.G	.	4A]	.	0B-y	-ri	1g	-stus	2r	.	2.b-y	.
.	.	4G	.	.	.	.	.	.	.	.	.
.	.	1G	Chri-	.	.	.	.	1d	ba-	.	.
4F	.	.	.	.	.	.	.	.	.	4cc	.
1D	.	.	.	.	.	1r	.	.	.	1dd	.
.	.	2F#i	.	.	.	.	.	2d	-pti-	.	.
=81	=81	=81	=81	=81	=81	=81	=81	=81	=81	=81	=81
1C	-ne	1G	-stus	2r	.	2r	.	1e	-za-	1g	-sti
.	.	.	.	2.c	vo-	1e	ba-	.	.	.	.
1AA	.	2r	.	.	.	.	.	[1c	-ri	1r	.
.	.	.	.	4B-y	.	.	.	.	.	.	.
.	.	[2C	ba-	[2A	.	2e	-pti-	.	.	.	.
=82	=82	=82	=82	=82	=82	=82	=82	=82	=82	=82	=82
1FF	Chri-	2C]	.	2A]	.	1f	-za-	0c]	.	1cc	ba-
.	.	2C	-pti-	4G	.	.	.	.	.	.	.
.	.	.	.	4F	.	.	.	.	.	.	.
1C	.	2.E	-za-	2G	.	1e	.	.	.	1cc	-pti-
.	.	.	.	2A	.	.	.	.	.	.	.
.	.	4F	.	.	.	.	.	.	.	.	.
=83	=83	=83	=83	=83	=83	=83	=83	=83	=83	=83	=83
1GG	-stus	1G	.	2.B-y	.	1d	-ri	1g	vo-	1dd	-za-
.	.	.	.	4A	.	.	.	.	.	.	.
2r	.	1C	-ri	4G	.	1r	.	2e	-lu-	1cc	.
.	.	.	.	4F	.	.	.	.	.	.	.
2FF	ba-	.	.	2A	.	.	.	[2f	.	.	.
=84	=84	=84	=84	=84	=84	=84	=84	=84	=84	=84	=84
2.BB-y	-pti-	1D	vo-	2G	.	0r	.	4f]	.	0b-y	-ri
.	.	.	.	.	.	.	.	4e	.	.	.
.	.	.	.	1F	.	.	.	1d	.	.	.
4AA	.	.	.	.	.	.	.	.	.	.	.
1GG	-za-	1BB-y	-lu-	.	.	.	.	.	.	.	.
.	.	.	.	2E	.	.	.	4c	.	.	.
.	.	.	.	.	.	.	.	4B-y	.	.	.
=85	=85	=85	=85	=85	=85	=85	=85	=85	=85	=85	=85
0FF	-ri,	1C	.	2.F	-lu-	1c	ba-	1A	-it,	2r	.
.	.	.	.	.	.	.	.	.	.	2.cc	vo-
.	.	.	.	4G	.	.	.	.	.	.	.
.	.	1F	.	1A	.	1c	-pti-	2r	.	.	.
.	.	.	.	.	.	.	.	.	.	4b-y	.
.	.	.	.	.	.	.	.	[2c	ba-	(2a	.
=86	=86	=86	=86	=86	=86	=86	=86	=86	=86	=86	=86
1r	.	1F	-it,	1D	.	1d	-za-	2c]	.	2a)	.
.	.	.	.	.	.	.	.	1B-y	-pti-	4g	.
.	.	.	.	.	.	.	.	.	.	4f	.
2r	.	2r	.	2E	.	1c	.	.	.	2g	.
2FF	ba-	2C	ba-	2F	.	.	.	2A	-za-	2a	.
=87	=87	=87	=87	=87	=87	=87	=87	=87	=87	=87	=87
2.GG	-pti-	1G	-pti-	2D	.	0B-y	-ri	2G	-ri	2.b-y	-lu-
.	.	.	.	2.B-y	.	.	.	1d	vo-	.	.
4AA	.	.	.	.	.	.	.	.	.	4a	.
2BB-y	.	1D	-za-	.	.	.	.	.	.	4g	.
.	.	.	.	4A	.	.	.	.	.	4f	.
2D	.	.	.	2F	.	.	.	2B-y	-lu-	[2f	.
=88	=88	=88	=88	=88	=88	=88	=88	=88	=88	=88	=88
1C	-za-	1E	.	1G	.	2r	.	2.c	.	2f]	.
.	.	.	.	.	.	2.c	vo-	.	.	2e	.
.	.	.	.	.	.	.	.	4B-y	.	.	.
1FF	-ri,	1C	-ri	[1F	-it	.	.	4A	.	[1f	-it,
.	.	.	.	.	.	4B-y	.	4G	.	.	.
.	.	.	.	.	.	[2A	.	[2c	.	.	.
=89	=89	=89	=89	=89	=89	=89	=89	=89	=89	=89	=89
2r	.	1D	.	1F]	.	2A]	.	2c]	.	1f]	.
1F	ba-	.	.	.	.	4G	.	2Bni	.	.	.
.	.	.	.	.	.	4F	.	.	.	.	.
.	.	1C	vo-	1r	.	2G	.	1c	-it	1r	.
2E	-pti-	.	.	.	.	2A	.	.	.	.	.
=90	=90	=90	=90	=90	=90	=90	=90	=90	=90	=90	=90
2F	-za-	1.BB-y	-lu-	0r	.	2.B-y	-lu-	1F	.	1r	.
1D	.	.	.	.	.	.	.	.	.	.	.
.	.	.	.	.	.	4A	.	.	.	.	.
.	.	.	.	.	.	4G	.	1r	.	2r	.
.	.	.	.	.	.	4F	.	.	.	.	.
2C	.	2AA	.	.	.	2A	.	.	.	2cc	ut
=91	=91	=91	=91	=91	=91	=91	=91	=91	=91	=91	=91
1D	.	2.BB-y	.	0r	.	2G	.	0r	.	2b-y	sal-
.	.	.	.	.	.	1F	.	.	.	1dd	-va-
.	.	4AA	.	.	.	.	.	.	.	.	.
1BB-y	-ri	1GG	.	.	.	.	.	.	.	.	.
.	.	.	.	.	.	2E	.	.	.	4cc	.
.	.	.	.	.	.	.	.	.	.	4b-y	.
=92	=92	=92	=92	=92	=92	=92	=92	=92	=92	=92	=92
1C	vo-	0FF	.	1r	.	[0F	-it	1r	.	2a	.
.	.	.	.	.	.	.	.	.	.	2.cc	.
[1F	.	.	.	2r	.	.	.	1c	ut	.	.
.	.	.	.	.	.	.	.	.	.	4b-y	.
.	.	.	.	2A	ut	.	.	.	.	4a	.
.	.	.	.	.	.	.	.	.	.	4g	.
=93	=93	=93	=93	=93	=93	=93	=93	=93	=93	=93	=93
2F]	.	1BB-y	-it,	2B-y	sal-	1F]	.	1d	.	2.f	.
2D	-lu-	.	.	2.d	-va-	.	.	.	.	.	.
.	.	.	.	.	.	.	.	.	.	4g	.
1D	-it,	1r	.	.	.	1r	.	1f	sal	2a	.
.	.	.	.	4c	.	.	.	.	.	.	.
.	.	.	.	4B-y	.	.	.	.	.	[2d	.
.	.	.	.	4A	.	.	.	.	.	.	.
=94	=94	=94	=94	=94	=94	=94	=94	=94	=94	=94	=94
0r	.	1r	.	2G	.	0r	.	1g	.	2d]	.
.	.	.	.	1c	.	.	.	.	.	2.e	.
.	.	[1C	ut	.	.	.	.	2.e	va-	.	.
.	.	.	.	.	.	.	.	.	.	4f	.
.	.	.	.	4B-y	.	.	.	.	.	2g	.
.	.	.	.	4A	.	.	.	4d	.	.	.
=95	=95	=95	=95	=95	=95	=95	=95	=95	=95	=95	=95
0r	.	1C]	.	1G	.	0r	.	4e	.	4c	.
.	.	.	.	.	.	.	.	4f	.	4d	.
.	.	.	.	.	.	.	.	1g	.	4e	.
.	.	.	.	.	.	.	.	.	.	4f	.
.	.	1C	sal-	2.E	-ret	.	.	.	.	2.g	.
.	.	.	.	.	.	.	.	4f	.	.	.
.	.	.	.	4F	.	.	.	4e	.	4a	.
=96	=96	=96	=96	=96	=96	=96	=96	=96	=96	=96	=96
0r	.	2BB-y	-va-	2G	.	1r	.	2d	.	2b-y	.
.	.	2AA	.	2C	.	.	.	2c	.	1cc	-ret
.	.	1GG	-ret	[1G	nos,	2r	.	1d	.	.	.
.	.	.	.	.	.	2d	ut	.	.	2bni	.
=97	=97	=97	=97	=97	=97	=97	=97	=97	=97	=97	=97
1r	.	0C	nos,	1G]	.	1e	sal-	2.c	.	1cc	nos,
.	.	.	.	.	.	.	.	4B-y	.	.	.
[1FF	ut	.	.	1r	.	[1f	-va-	4A	.	2r	.
.	.	.	.	.	.	.	.	4G	.	.	.
.	.	.	.	.	.	.	.	[2A	.	[2cc	ut
=98	=98	=98	=98	=98	=98	=98	=98	=98	=98	=98	=98
1FF]	.	1r	.	0F	ut	1f]	.	2A]	.	4cc]	.
.	.	.	.	.	.	.	.	.	.	4b-y	.
.	.	.	.	.	.	.	.	4G	.	1a	.
.	.	.	.	.	.	.	.	4F	.	.	.
1FF	sal-	[1C	ut	.	.	1a	.	[1c	.	.	.
.	.	.	.	.	.	.	.	.	.	4g	.
.	.	.	.	.	.	.	.	.	.	4f	.
=99	=99	=99	=99	=99	=99	=99	=99	=99	=99	=99	=99
0C	-va-	1C]	.	0G	.	[0g	.	0c]	.	2e	.
.	.	.	.	.	.	.	.	.	.	2c	sal-
.	.	1E	sal-	.	.	.	.	.	.	1cc	-va-
=100	=100	=100	=100	=100	=100	=100	=100	=100	=100	=100	=100
0GG	-ret	1D	-va-	0B-y	sal-	0g]	.	1d	-ret	2.b-y	.
.	.	.	.	.	.	.	.	.	.	4a	.
.	.	[1G	.	.	.	.	.	1B-y	.	4b-y	.
.	.	.	.	.	.	.	.	.	.	4cc	.
.	.	.	.	.	.	.	.	.	.	[2dd	.
=101	=101	=101	=101	=101	=101	=101	=101	=101	=101	=101	=101
0AA	.	2G]	.	1.c	-va-	1e	.	0A	nos	2dd]	.
.	.	4F	.	.	.	.	.	.	.	2cc	.
.	.	4E	.	.	.	.	.	.	.	.	.
.	.	2F	.	.	.	1c	.	.	.	2a	.
.	.	2E	.	4B-y	.	.	.	.	.	[2cc	.
.	.	.	.	4A	.	.	.	.	.	.	.
=102	=102	=102	=102	=102	=102	=102	=102	=102	=102	=102	=102
1GG	nos;	1G	.	1B-y	.	1d	-ret	2r	.	2cc]	.
.	.	.	.	.	.	.	.	1d	al-	2b-y	-ret
2C	al-	2E	.	1c	.	2e	.	.	.	1g	nos;
2E	-le-	2C	.	.	.	[2g	.	2c	-le-	.	.
=103	=103	=103	=103	=103	=103	=103	=103	=103	=103	=103	=103
0D	-lu-	0F	-ret	[0d	-nos;	2g]	.	2B-y	-lu-	2r	.
.	.	.	.	.	.	4f	.	4A	.	2.dd	al-
.	.	.	.	.	.	4e	.	4G	.	.	.
.	.	.	.	.	.	1f	.	1A	.	.	.
.	.	.	.	.	.	.	.	.	.	4cc	.
.	.	.	.	.	.	.	.	.	.	2a	.
=104	=104	=104	=104	=104	=104	=104	=104	=104	=104	=104	=104
1GG	.	1D	nos	1d]	.	1g	nos;	0G	-ia,	1b-y	-le-
1C	.	[1E	al-	[1c	[al-	1e	.	.	.	1g	-lu-
=105	=105	=105	=105	=105	=105	=105	=105	=105	=105	=105	=105
1AA	.	1E]	.	2c]	.	1c	al-	2.A	al-	[0cc	-ia,
.	.	.	.	2B-y	-le-	.	.	.	.	.	.
.	.	.	.	.	.	.	.	4G	.	.	.
1FF	.	1F	-le-	1A	-lu-	2.c	-le-	4A	.	.	.
.	.	.	.	.	.	.	.	4B-y	.	.	.
.	.	.	.	.	.	.	.	[2c	.	.	.
.	.	.	.	.	.	4d	.	.	.	.	.
=106	=106	=106	=106	=106	=106	=106	=106	=106	=106	=106	=106
0C	.	1G	-lu-	0G	.	2e	.	2c]	.	1cc]	.
.	.	.	.	.	.	1f	-lu-	4B-y	.	.	.
.	.	.	.	.	.	.	.	4A	.	.	.
.	.	[1C	-ia,	.	.	.	.	2G	.	2r	.
.	.	.	.	.	.	2e	.	2c	-le-	[2cc	al-
=107	=107	=107	=107	=107	=107	=107	=107	=107	=107	=107	=107
0FF	-ia,	0C_	.	0F	-ia,]	1f	.	2.A	-lu-	4cc]	.
.	.	.	.	.	.	.	.	.	.	4b-y	.
.	.	.	.	.	.	.	.	.	.	1a	.
.	.	.	.	.	.	.	.	4B-y	.	.	.
.	.	.	.	.	.	1a	.	[1c	-ia,	.	.
.	.	.	.	.	.	.	.	.	.	4g	.
.	.	.	.	.	.	.	.	.	.	4f	.
=108	=108	=108	=108	=108	=108	=108	=108	=108	=108	=108	=108
1r	.	1C]	.	1r	.	2.g	.	0c]	.	1e	.
.	.	.	.	.	.	4f	.	.	.	.	.
[1C	al-	1r	.	[1G	al-	4e	.	.	.	2c	-le-
.	.	.	.	.	.	4d	.	.	.	.	.
.	.	.	.	.	.	[2e	.	.	.	[2g	-lu-
=109	=109	=109	=109	=109	=109	=109	=109	=109	=109	=109	=109
2C]	.	2r	.	1G]	.	2e]	.	0r	.	4g]	.
.	.	.	.	.	.	.	.	.	.	4a	.
2BB-y	.	2D	al-	.	.	1d	.	.	.	2b-y	.
1AA	-le-	2E	-le-	1A	-le-	.	.	.	.	1cc	.
.	.	2F	-lu-	.	.	2c	.	.	.	.	.
=110	=110	=110	=110	=110	=110	=110	=110	=110	=110	=110	=110
0GG	-lu-	0G	-ia,	0B-y	-lu-	1d	-ia,	0g	al-	1b-y	-ia,
.	.	.	.	.	.	1B-y	.	.	.	1dd	al-
=111	=111	=111	=111	=111	=111	=111	=111	=111	=111	=111	=111
1AA	.	0C	al-	2.A	.	1.c	al-	1.e	-le-	2.cc	-le-
.	.	.	.	4G	.	.	.	.	.	4b-y	.
1FF	.	.	.	4A	.	.	.	.	.	4a	.
.	.	.	.	4B-y	.	.	.	.	.	4g	.
.	.	.	.	[2c	.	2A	-le-	2f	-lu-	[2a	.
=112	=112	=112	=112	=112	=112	=112	=112	=112	=112	=112	=112
2.BB-y	.	2.D	-le-	2c]	.	2B-y	-lu-	[0dl	-ia.	4a]	.
.	.	.	.	.	.	.	.	.	.	4g	.
.	.	.	.	2B-y	.	2.d	.	.	.	1g	.
4C	.	4E	.	.	.	.	.	.	.	.	.
1D	.	1F	-lu-	1A	.	.	.	.	.	.	.
.	.	.	.	.	.	4c	.	.	.	.	.
.	.	.	.	.	.	2A	.	.	.	2f#i	-lu-
=	=	=	=	=	=	=	=	=	=	=	=
00GG	-ia.	00D	-ia.	00G	-ia.	00B-y	-ia.	00d]	.	00g	-ia.
=||	=||	=||	=||	=||	=||	=||	=||	=||	=||	=||	=||
*M2/1	*	*M2/1	*	*M2/1	*	*M2/1	*	*M2/1	*	*M2/1	*
*met(C|)	*	*met(C|)	*	*met(C|)	*	*met(C|)	*	*met(C|)	*	*met(C|)	*
!!section: Secunda pars: Ab oriente
!!!OMD: Secunda pars: Ab oriente
0r	.	0r	.	1r	.	0d	Ab	0r	.	0r	.
.	.	.	.	1D	Ab	.	.	.	.	.	.
=113	=113	=113	=113	=113	=113	=113	=113	=113	=113	=113	=113
0r	.	0r	.	2.F	o-	1c	o-	0A	Ab	0r	.
.	.	.	.	4G	.	.	.	.	.	.	.
.	.	.	.	4A	.	1c	-ri-	.	.	.	.
.	.	.	.	4B-y	.	.	.	.	.	.	.
.	.	.	.	[2c	.	.	.	.	.	.	.
=114	=114	=114	=114	=114	=114	=114	=114	=114	=114	=114	=114
0D	Ab	0r	.	2c]	.	0d	-en-	1F	o-	0r	.
.	.	.	.	4B-y	.	.	.	.	.	.	.
.	.	.	.	4A	.	.	.	.	.	.	.
.	.	.	.	2B-y	.	.	.	1F	-ri-	.	.
.	.	.	.	2A	-ri-	.	.	.	.	.	.
=115	=115	=115	=115	=115	=115	=115	=115	=115	=115	=115	=115
1C	o-	0r	.	2.c	-en-	0e	.	2.G	-en-	0r	.
.	.	.	.	4B-y	.	.	.	4F	.	.	.
1C	-ri-	.	.	4c	.	.	.	2G	.	.	.
.	.	.	.	4B-y	.	.	.	.	.	.	.
.	.	.	.	4A	.	.	.	[2A	.	.	.
.	.	.	.	4G	.	.	.	.	.	.	.
=116	=116	=116	=116	=116	=116	=116	=116	=116	=116	=116	=116
0D	-en-	0r	.	2F	.	2.d	.	4A]	.	0r	.
.	.	.	.	.	.	.	.	4G	.	.	.
.	.	.	.	2B-y	.	.	.	1G	.	.	.
.	.	.	.	.	.	4e	.	.	.	.	.
.	.	.	.	1A	.	2f	.	.	.	.	.
.	.	.	.	.	.	(2d	.	2F#i	.	.	.
=117	=117	=117	=117	=117	=117	=117	=117	=117	=117	=117	=117
0E	.	0r	.	1G	-te	2d)	.	0G	-te,	0r	.
.	.	.	.	.	.	4c	.	.	.	.	.
.	.	.	.	.	.	4B-y	.	.	.	.	.
.	.	.	.	1r	.	1c	.	.	.	.	.
=118	=118	=118	=118	=118	=118	=118	=118	=118	=118	=118	=118
1.D	-te	0r	.	0F	ve-	1d	.	1r	.	0a	Ab
.	.	.	.	.	.	[1A	-te,	1d	ab	.	.
2D	ve-	.	.	.	.	.	.	.	.	.	.
=119	=119	=119	=119	=119	=119	=119	=119	=119	=119	=119	=119
1D	-ne-	0D	Ab	0A	-ne-	1A]	.	1d	o-	1f	o-
1F	.	.	.	.	.	1r	.	1d	-ri-	1f	-ri-
=120	=120	=120	=120	=120	=120	=120	=120	=120	=120	=120	=120
1E	-runt,	1C	o-	0c	.	2r	.	0e	-en-	2.g	-en-
.	.	.	.	.	.	2G	ve-	.	.	.	.
.	.	.	.	.	.	.	.	.	.	4f	.
2r	.	1C	-ri-	.	.	4c	.	.	.	2g	.
.	.	.	.	.	.	4B-y	.	.	.	.	.
2AA	ve-	.	.	.	.	4A	.	.	.	[2a	.
.	.	.	.	.	.	4G	.	.	.	.	.
=121	=121	=121	=121	=121	=121	=121	=121	=121	=121	=121	=121
2BB-y	-ne-	0D	-en-	1B-y	-runt	2F	.	0d	-te	4a]	.
.	.	.	.	.	.	.	.	.	.	4g	.
2GG	-runt	.	.	.	.	2G	-ne-	.	.	1g	.
1D	ma-	.	.	1A	.	1A	-runt	.	.	.	.
.	.	.	.	.	.	.	.	.	.	2f#i	.
=122	=122	=122	=122	=122	=122	=122	=122	=122	=122	=122	=122
0C	-gi-	0E	.	0c	ma-	1r	.	1G	ve-	[0g	-te
.	.	.	.	.	.	[1G	ma-	1c	-ne-	.	.
=123	=123	=123	=123	=123	=123	=123	=123	=123	=123	=123	=123
1GG	-in	[0D	-te	2.d	.	1G]	.	1B-y	-runt,	1g]	.
.	.	.	.	4c	.	.	.	.	.	.	.
2.BB-y	Be-	.	.	4d	.	[1F	.	2r	.	1d	ve-
.	.	.	.	4e	.	.	.	.	.	.	.
.	.	.	.	[2f	.	.	.	2B-y	ma-	.	.
4C	.	.	.	.	.	.	.	.	.	.	.
=124	=124	=124	=124	=124	=124	=124	=124	=124	=124	=124	=124
2D	.	1D]	.	4f]	.	1F]	.	2A	.	1f	-ne-
.	.	.	.	4e	.	.	.	.	.	.	.
2BB-y	.	.	.	1d	.	.	.	2B-y	.	.	.
1C	-thle-	1G	ma-	.	.	1c	.	2G	.	1e	-runt
.	.	.	.	2c	.	.	.	[2g	.	.	.
=125	=125	=125	=125	=125	=125	=125	=125	=125	=125	=125	=125
0GG	-hem,	0G	-gi	0d	-gi	0B-y	.	2g]	.	1d	.
.	.	.	.	.	.	.	.	4f	.	.	.
.	.	.	.	.	.	.	.	4e	.	.	.
.	.	.	.	.	.	.	.	2d	.	1g	ma-
.	.	.	.	.	.	.	.	2g	.	.	.
=126	=126	=126	=126	=126	=126	=126	=126	=126	=126	=126	=126
0r	.	1D	in	1d	in	0A	-gi	1f	-gi	2.a	.
.	.	.	.	.	.	.	.	.	.	4g	.
.	.	2.F	Be-	[1c	Be-	.	.	2r	.	4a	.
.	.	.	.	.	.	.	.	.	.	4b-y	.
.	.	.	.	.	.	.	.	2f	in	[2cc	.
.	.	4G	.	.	.	.	.	.	.	.	.
=127	=127	=127	=127	=127	=127	=127	=127	=127	=127	=127	=127
0r	.	2A	.	1c]	.	2r	.	2e	Be-	4cc]	.
.	.	.	.	.	.	.	.	.	.	4b-y	.
.	.	2F	.	.	.	2A	in	2f	.	1a	.
.	.	1G	.	1B-y	.	2B-y	Be-	2.d	-thele-	.	.
.	.	.	.	.	.	[2d	-thle-	.	.	2g	.
.	.	.	.	.	.	.	.	4e	.	.	.
=128	=128	=128	=128	=128	=128	=128	=128	=128	=128	=128	=128
2r	.	0D	-thle-	1A	.	2d]	.	[0f	.	[0a	-gi
2D	in	.	.	.	.	4c	.	.	.	.	.
.	.	.	.	.	.	4B-y	.	.	.	.	.
2.F	Be-	.	.	2D	-thle-	1A	.	.	.	.	.
.	.	.	.	[2F	.	.	.	.	.	.	.
4G	.	.	.	.	.	.	.	.	.	.	.
=129	=129	=129	=129	=129	=129	=129	=129	=129	=129	=129	=129
2A	.	1D	.	4F]	.	1d	.	1f]	.	1a]	.
.	.	.	.	4G	.	.	.	.	.	.	.
2F	.	.	.	4A	.	.	.	.	.	.	.
.	.	.	.	4B-y	.	.	.	.	.	.	.
1G	-thle-	[1C	.	2.c	.	2G	.	[1e	.	1r	.
.	.	.	.	.	.	[2g	.	.	.	.	.
.	.	.	.	4B-y	.	.	.	.	.	.	.
=130	=130	=130	=130	=130	=130	=130	=130	=130	=130	=130	=130
1E	.	1C]	.	2G	.	2g]	.	2e]	.	1r	.
.	.	.	.	1A	.	4f	.	2c	.	.	.
.	.	.	.	.	.	4e	.	.	.	.	.
1D	-hem,	1BB-y	.	.	.	2f	.	2.d	.	1dd	in
.	.	.	.	2G	.	2g	.	.	.	.	.
.	.	.	.	.	.	.	.	4e	.	.	.
=131	=131	=131	=131	=131	=131	=131	=131	=131	=131	=131	=131
2r	.	1AA	.	2A	.	1c	.	2f	.	2.cc	Be-
2E	in	.	.	1c	.	.	.	2e	.	.	.
.	.	.	.	.	.	.	.	.	.	4b-y	.
2.F	Be-	1D	.	.	.	1f	.	2.d	.	4a	.
.	.	.	.	.	.	.	.	.	.	4g	.
.	.	.	.	2B-y	.	.	.	.	.	[2b-y	.
4G	.	.	.	.	.	.	.	4c	.	.	.
=132	=132	=132	=132	=132	=132	=132	=132	=132	=132	=132	=132
2A	.	2C	.	2c	.	2e	.	1A	-hem,	4b-]	.
.	.	.	.	.	.	.	.	.	.	4a	.
2F	.	2D	.	2A	.	2f	.	.	.	1a	-thle-
1G	-thle-	1GG	-hem,	1B-y	.	2.d	.	1r	.	.	.
.	.	.	.	.	.	.	.	.	.	2g	.
.	.	.	.	.	.	4e	.	.	.	.	.
=133	=133	=133	=133	=133	=133	=133	=133	=133	=133	=133	=133
1D	-hem	1r	.	0A	-hem	4f	.	1d	in	0a	-hem,
.	.	.	.	.	.	4g	.	.	.	.	.
.	.	.	.	.	.	1f	.	.	.	.	.
1r	.	1AA	in	.	.	.	.	2.c	Be-	.	.
.	.	.	.	.	.	2e	.	.	.	.	.
.	.	.	.	.	.	.	.	4B-y	.	.	.
=134	=134	=134	=134	=134	=134	=134	=134	=134	=134	=134	=134
1F	a-	1D	.	1r	.	1f	-hem	4A	.	2r	.
.	.	.	.	.	.	.	.	4G	.	.	.
.	.	.	.	.	.	.	.	2.B-y	.	2f	in
2E	-do-	2C	Be-	1A	a-	1r	.	.	.	1a	Be-
.	.	.	.	.	.	.	.	4A	.	.	.
2F	-ra-	2D	.	.	.	.	.	[2A	-thle-	.	.
=135	=135	=135	=135	=135	=135	=135	=135	=135	=135	=135	=135
1D	-re	1BB-y	-thle-	1d	-do-	0r	.	2A]	.	1b-y	-thle-
.	.	.	.	.	.	.	.	2G	.	.	.
[1E	Do-	[1AA	-hem	[1c	-ra-	.	.	[1A	-hem	2.cc	.
.	.	.	.	.	.	.	.	.	.	4b-y	.
=136	=136	=136	=136	=136	=136	=136	=136	=136	=136	=136	=136
2E]	.	1AA]	.	1c]	.	0r	.	1A]	.	2cc	.
2F	-mi-	.	.	.	.	.	.	.	.	1a	.
1G	-num,	1r	.	1B-y	-re	.	.	2r	.	.	.
.	.	.	.	.	.	.	.	2d	a-	2g	.
=137	=137	=137	=137	=137	=137	=137	=137	=137	=137	=137	=137
1E	.	1AA	a-	1c	.	0r	.	1e	-do-	1.a	.
1r	.	1D	-do-	[1A	Do-	.	.	1f	-ra-	.	.
.	.	.	.	.	.	.	.	.	.	4g	.
.	.	.	.	.	.	.	.	.	.	4f	.
=138	=138	=138	=138	=138	=138	=138	=138	=138	=138	=138	=138
2r	.	0C	-ra-	2A]	.	0r	.	2e	.	0cc	-hem
1E	a-	.	.	4G	.	.	.	1g	.	.	.
.	.	.	.	4F	.	.	.	.	.	.	.
.	.	.	.	2G	.	.	.	.	.	.	.
2E	-do-	.	.	2A	.	.	.	4f	.	.	.
.	.	.	.	.	.	.	.	4e	.	.	.
=139	=139	=139	=139	=139	=139	=139	=139	=139	=139	=139	=139
2G	-ra-	1.BB-y	-re	2B-y	-mi-	0r	.	1d	-re	0r	.
2F	-re	.	.	4A	.	.	.	.	.	.	.
.	.	.	.	4G	.	.	.	.	.	.	.
2D	Do-	.	.	4F	.	.	.	1r	.	.	.
.	.	.	.	4G	.	.	.	.	.	.	.
[2E	.	[2C	Do-	[2A	.	.	.	.	.	.	.
=140	=140	=140	=140	=140	=140	=140	=140	=140	=140	=140	=140
2E]	.	2C]	.	2A]	.	0r	.	1G	a-	0r	.
1D	.	2BB-y	.	1G	.	.	.	.	.	.	.
.	.	1AA	.	.	.	.	.	1c	-do-	.	.
2C	.	.	.	2F#i	.	.	.	.	.	.	.
=141	=141	=141	=141	=141	=141	=141	=141	=141	=141	=141	=141
1D	-mi-	1.GG	-mi-	2G	.	0r	.	2.B-y	-ra-	0r	.
.	.	.	.	1B-y	.	.	.	.	.	.	.
.	.	.	.	.	.	.	.	4c	.	.	.
1G	.	.	.	.	.	.	.	2d	.	.	.
.	.	[2C	.	4A	.	.	.	[2e-i	.	.	.
.	.	.	.	4G	.	.	.	.	.	.	.
=142	=142	=142	=142	=142	=142	=142	=142	=142	=142	=142	=142
2F	.	2C]	.	2A	.	1d	a-	4e-]	.	0r	.
.	.	.	.	.	.	.	.	4d	.	.	.
2G	.	2BB-y	.	2B-y	.	.	.	1d	.	.	.
1E	.	1C	.	1G	.	1g	-do-	.	.	.	.
.	.	.	.	.	.	.	.	2c	.	.	.
=143	=143	=143	=143	=143	=143	=143	=143	=143	=143	=143	=143
1D	.	2.F	.	2A	.	1f	-ra-	1d	-re	1r	.
.	.	.	.	2.B-y	.	.	.	.	.	.	.
.	.	4G	.	.	.	.	.	.	.	.	.
2C	.	1A	.	.	.	2e	-re	2r	.	1a	a-
.	.	.	.	4A	.	.	.	.	.	.	.
2D	.	.	.	[2A	.	[2f	Do-	2A	a-	.	.
=144	=144	=144	=144	=144	=144	=144	=144	=144	=144	=144	=144
1BB-y	.	1D	-num,	2A]	.	2f]	.	1B-y	-do-	1dd	-do-
.	.	.	.	2G	.	4e	.	.	.	.	.
.	.	.	.	.	.	4d	.	.	.	.	.
[1AA	-num,	2r	.	2.A	.	2f	.	2.c	-ra-	[1cc	-ra-
.	.	[2A	a-	.	.	2e	.	.	.	.	.
.	.	.	.	4B-y	.	.	.	4d	.	.	.
=145	=145	=145	=145	=145	=145	=145	=145	=145	=145	=145	=145
1AA]	.	2A]	.	2c	.	1c	-mi-	2e	.	1cc]	.
.	.	2A	-do-	2F	.	.	.	2f	-re	.	.
1r	.	1G	-ra-	1B-y	.	1d	.	[1g	Do-	1b-y	-re
=146	=146	=146	=146	=146	=146	=146	=146	=146	=146	=146	=146
0r	.	2E	-re	2G	.	0c	.	2g]	.	1cc	.
.	.	2.F	Do-	2.A	.	.	.	1f	-mi-	.	.
.	.	.	.	.	.	.	.	.	.	[1a	Do-
.	.	4E	.	4G	.	.	.	.	.	.	.
.	.	2C	.	[2c	.	.	.	2e	.	.	.
=147	=147	=147	=147	=147	=147	=147	=147	=147	=147	=147	=147
0r	.	1D	-mi-	4c]	.	1F	-num	2d	.	2a]	.
.	.	.	.	4Bni	.	.	.	.	.	.	.
.	.	.	.	4Bni	.	.	.	1f	.	4g	.
.	.	.	.	4A	.	.	.	.	.	4f	.
.	.	1C	-num,	1c	.	1r	.	.	.	2g	.
.	.	.	.	.	.	.	.	2e	.	2a	.
=148	=148	=148	=148	=148	=148	=148	=148	=148	=148	=148	=148
2r	.	0r	.	1G	-num,	0r	.	2d	.	2b-y	-mi-
2C	et	.	.	.	.	.	.	4c	.	4a	.
.	.	.	.	.	.	.	.	4B-y	.	4g	.
1D	a-	.	.	2r	.	.	.	2A	.	4f	.
.	.	.	.	.	.	.	.	.	.	4g	.
.	.	.	.	2F	et	.	.	[2d	.	[2a	.
=149	=149	=149	=149	=149	=149	=149	=149	=149	=149	=149	=149
1E	-per-	0r	.	1G	a-	1r	.	2d]	.	4a]	.
.	.	.	.	.	.	.	.	.	.	4g	.
.	.	.	.	.	.	.	.	2c	.	1g	.
1D	.	.	.	1A	-per-	2r	.	[1d	-num,	.	.
.	.	.	.	.	.	2A	et	.	.	2f#i	.
=150	=150	=150	=150	=150	=150	=150	=150	=150	=150	=150	=150
1GG	-tis,	1r	.	0G	-tis,	1B-y	a-	1d]	.	0g	-num,
2r	.	2.C	et	.	.	2.c	-per-	[1e	et	.	.
2C	et	.	.	.	.	.	.	.	.	.	.
.	.	4D	.	.	.	4B-y	.	.	.	.	.
=151	=151	=151	=151	=151	=151	=151	=151	=151	=151	=151	=151
2C	a-	2E	a-	1r	.	2G	.	2e]	.	0r	.
2FF	-per-	2F	-per-	.	.	2A	.	2c	a-	.	.
1BB-y	-tis	[1D	.	2.F	et	2.B-y	.	2.d	-per-	.	.
.	.	.	.	4G	.	4A	.	4c	.	.	.
=152	=152	=152	=152	=152	=152	=152	=152	=152	=152	=152	=152
0r	.	1D]	.	2A	a-	1F	.	4d	.	1f	et
.	.	.	.	.	.	.	.	4c	.	.	.
.	.	.	.	2B-y	.	.	.	1f	.	.	.
.	.	1C	-tis,	1G	-per-	[1c	-tis,	.	.	1g	a-
.	.	.	.	.	.	.	.	2e	.	.	.
=153	=153	=153	=153	=153	=153	=153	=153	=153	=153	=153	=153
0r	.	0r	.	1F	-tis,	1c]	.	1f	-tis	1a	-per-
.	.	.	.	1r	.	2r	.	2.c	the-	[1g	-tis
.	.	.	.	.	.	[2c	et	.	.	.	.
.	.	.	.	.	.	.	.	4d	.	.	.
=154	=154	=154	=154	=154	=154	=154	=154	=154	=154	=154	=154
0r	.	0r	.	0r	.	2c]	.	2e	.	2g]	.
.	.	.	.	.	.	2F	a-	2f	.	2a	the-
.	.	.	.	.	.	1f	-per-	1d	-sau-	2a	-sau-
.	.	.	.	.	.	.	.	.	.	2f	.
=155	=155	=155	=155	=155	=155	=155	=155	=155	=155	=155	=155
0r	.	1r	.	0r	.	2e	-tis	2c	-ris	2g	.
.	.	.	.	.	.	2f	the-	2F	su-	2.a	.
.	.	2r	.	.	.	2.c	-sau-	2.A	.	.	.
.	.	.	.	.	.	.	.	.	.	4b-y	.
.	.	[2A	et	.	.	.	.	.	.	[2cc	.
.	.	.	.	.	.	4d	.	4B-y	.	.	.
=156	=156	=156	=156	=156	=156	=156	=156	=156	=156	=156	=156
0r	.	2A]	.	0r	.	2e	.	2c	.	4cc]	.
.	.	.	.	.	.	.	.	.	.	4b-y	.
.	.	2F	a-	.	.	2f	.	2d	.	1a	.
.	.	1G	-per-	.	.	1d	.	1B-y	.	.	.
.	.	.	.	.	.	.	.	.	.	2g	.
=157	=157	=157	=157	=157	=157	=157	=157	=157	=157	=157	=157
2.FF	et	1.C	.	0F	et	2c	-ris	1A	-is,	2.a	-ris
.	.	.	.	.	.	2.f	su-	.	.	.	.
4GG	.	.	.	.	.	.	.	.	.	4b-y	.
2AA	.	.	.	.	.	.	.	1r	.	2cc	.
.	.	.	.	.	.	4e	.	.	.	.	.
2BB-y	a-	[2F	.	.	.	[2d	.	.	.	2f	.
=158	=158	=158	=158	=158	=158	=158	=158	=158	=158	=158	=158
1GG	-per-	2F]	.	1G	a-	2d]	.	0r	.	1b-y	su-
.	.	2E	.	.	.	4c	.	.	.	.	.
.	.	.	.	.	.	4B-y	.	.	.	.	.
1FF	-tis	1F	-tis,	1A	-per-	2d	.	.	.	2a	.
.	.	.	.	.	.	[2c	.	.	.	2f	.
=159	=159	=159	=159	=159	=159	=159	=159	=159	=159	=159	=159
2.C	the-	2r	.	1.G	-tis	2c]	.	0r	.	2g	.
.	.	1C	et	.	.	4B-y	.	.	.	2.cc	.
4D	.	.	.	.	.	4A	.	.	.	.	.
2E	.	.	.	.	.	2G	.	.	.	.	.
.	.	.	.	.	.	.	.	.	.	4b-y	.
2F	.	2FF	a-	2A	the-	[2c	.	.	.	4a	.
.	.	.	.	.	.	.	.	.	.	4g	.
=160	=160	=160	=160	=160	=160	=160	=160	=160	=160	=160	=160
1D	-sau-	1F	-per-	2A	-sau-	2c]	.	1r	.	1f	-is
.	.	.	.	2F	-ris	2B-y	.	.	.	.	.
2C	-ris	2E	-tis	2G	su-	[1c	.	2r	.	1r	.
2FF	.	2F	the-	[2A	.	.	.	2f	the-	.	.
=161	=161	=161	=161	=161	=161	=161	=161	=161	=161	=161	=161
2.AA	su-	2.C	-sau-	4A]	.	1c]	.	2e	-sau-	0r	.
.	.	.	.	4B-y	.	.	.	.	.	.	.
.	.	.	.	2.c	.	.	.	2.a	-ris	.	.
4BB-y	.	4D	.	.	.	.	.	.	.	.	.
2C	.	2E	.	.	.	1A	-is	.	.	.	.
.	.	.	.	4B-y	.	.	.	4g	.	.	.
2D	.	2F	-ris	[2A	.	.	.	[2f	.	.	.
=162	=162	=162	=162	=162	=162	=162	=162	=162	=162	=162	=162
1BB-y	.	1D	su-	2A]	.	1r	.	2f]	.	0r	.
.	.	.	.	2G	.	.	.	4e	.	.	.
.	.	.	.	.	.	.	.	4d	.	.	.
1AA	-is	1C	.	[1A	.	2r	.	2f	.	.	.
.	.	.	.	.	.	[2c	pre-	2e	su-	.	.
=163	=163	=163	=163	=163	=163	=163	=163	=163	=163	=163	=163
0r	.	1F	.	2A]	.	2c]	.	1c	-is	0r	.
.	.	.	.	4G	.	2A	-ti-	.	.	.	.
.	.	.	.	4F	.	.	.	.	.	.	.
.	.	1E-X	.	1G	.	2B-y	-o-	1r	.	.	.
.	.	.	.	.	.	2c	-sa	.	.	.	.
=164	=164	=164	=164	=164	=164	=164	=164	=164	=164	=164	=164
0r	.	0D	-is	1A	-is	2.d	mu-	2r	.	1a	pre-
.	.	.	.	.	.	.	.	1f	pre-	.	.
.	.	.	.	.	.	8cL	.	.	.	.	.
.	.	.	.	.	.	8B-yJ	.	.	.	.	.
.	.	.	.	1r	.	4A	.	.	.	1dd	-ti-
.	.	.	.	.	.	4G	.	.	.	.	.
.	.	.	.	.	.	2B-y	.	2d	-ti-	.	.
=165	=165	=165	=165	=165	=165	=165	=165	=165	=165	=165	=165
0r	.	1r	.	0r	.	1A	-ne-	2e	-o-	1cc	-o-
.	.	.	.	.	.	.	.	2f	-sa	.	.
.	.	2r	.	.	.	2G	.	2.g	mu-	2.b-y	-sa
.	.	[2G	pre-	.	.	[2B-y	.	.	.	.	.
.	.	.	.	.	.	.	.	8fL	.	4a	.
.	.	.	.	.	.	.	.	8eJ	.	.	.
=166	=166	=166	=166	=166	=166	=166	=166	=166	=166	=166	=166
0r	.	2G]	.	0r	.	2B-]	.	4d	.	4b-y	.
.	.	.	.	.	.	.	.	4c	.	4g	.
.	.	2E	-ti-	.	.	4A	.	2e	.	1cc	.
.	.	.	.	.	.	4G	.	.	.	.	.
.	.	2F	-o-	.	.	2A	.	1d	-ne-	.	.
.	.	2G	-sa	.	.	2B-y	.	.	.	2b-y	mu-
=167	=167	=167	=167	=167	=167	=167	=167	=167	=167	=167	=167
1r	.	2.A	mu-	2r	.	1F	-ra	1c	-ra	2.cc	-ne-
.	.	.	.	1c	pre-	.	.	.	.	.	.
.	.	8GL	.	.	.	.	.	.	.	8b-yL	.
.	.	8FJ	.	.	.	.	.	.	.	8aJ	.
2r	.	4E	.	.	.	1r	.	1r	.	4g	.
.	.	4D	.	.	.	.	.	.	.	4f	.
2D	mu-	2F	.	2A	-ti-	.	.	.	.	2a	.
=168	=168	=168	=168	=168	=168	=168	=168	=168	=168	=168	=168
2G	-ne-	1E-X	-ne-	2B-y	-o-	0r	.	2.G	ob-	1g	-ra
2C	-ra	.	.	2c	-sa	.	.	.	.	.	.
.	.	.	.	.	.	.	.	4A	.	.	.
[1F	ob-	[1D	-ra	2.d	mu-	.	.	2B-y	.	2.f	ob-
.	.	.	.	.	.	.	.	[2A	-tu-	.	.
.	.	.	.	8cL	.	.	.	.	.	4g	.
.	.	.	.	8B-yJ	.	.	.	.	.	.	.
=169	=169	=169	=169	=169	=169	=169	=169	=169	=169	=169	=169
2F]	.	2D]	.	4A	.	0r	.	2A]	.	2a	.
.	.	.	.	4G	.	.	.	.	.	.	.
2.D	-tu-	2GG	ob-	2B-y	.	.	.	2.d	-le-	1g	-tu-
.	.	1D	-tu-	1A	-ne-	.	.	.	.	.	.
4E	.	.	.	.	.	.	.	4c	.	.	.
2F	.	.	.	.	.	.	.	2A	.	2f#i	-le-
=170	=170	=170	=170	=170	=170	=170	=170	=170	=170	=170	=170
2D	-le-	2.GG	-le-	[0G	-ra	1.d	ob-	2.B-y	.	1g	-runt,
1G	.	.	.	.	.	.	.	.	.	.	.
.	.	4AA	.	.	.	.	.	4c	.	.	.
.	.	2BB-y	.	.	.	.	.	2d	.	2r	.
4F	.	2C	.	.	.	2G	-tu-	[2c	.	[2g	ob-
4E	.	.	.	.	.	.	.	.	.	.	.
=171	=171	=171	=171	=171	=171	=171	=171	=171	=171	=171	=171
1D	-runt	1GG	.	0G]	.	1d	-le-	2c]	.	4g]	.
.	.	.	.	.	.	.	.	.	.	4a	.
.	.	.	.	.	.	.	.	2B-y	.	2b-y	.
2r	.	1C	-runt,	.	.	2.e	.	2.c	.	2g	-tu-
[2C	pre-	.	.	.	.	.	.	.	.	2cc	.
.	.	.	.	.	.	4f	.	4d	.	.	.
=172	=172	=172	=172	=172	=172	=172	=172	=172	=172	=172	=172
2C]	.	0r	.	0r	.	2g	.	2e	.	2cc	-le-
2D	-ti-	.	.	.	.	1f	.	1d	.	4b-y	.
.	.	.	.	.	.	.	.	.	.	4a	.
2BB-y	-o-	.	.	.	.	.	.	.	.	1g	.
2C	-sa	.	.	.	.	2e	.	4c	.	.	.
.	.	.	.	.	.	.	.	4B-y	.	.	.
=173	=173	=173	=173	=173	=173	=173	=173	=173	=173	=173	=173
2.D	mu-	2r	.	1A	pre-	2f	.	2A	.	1f	-runt:
.	.	1F	pre-	.	.	2.d	.	2F	.	.	.
4C	.	.	.	.	.	.	.	.	.	.	.
2BB-y	.	.	.	1d	-ti-	.	.	1B-y	-runt:	1r	.
.	.	.	.	.	.	4c	.	.	.	.	.
2GG	-ne-	2G	-ti-	.	.	2B-y	.	.	.	.	.
=174	=174	=174	=174	=174	=174	=174	=174	=174	=174	=174	=174
1AA	-ra	2E	-o-	1c	-o-	1A	.	0r	.	0r	.
.	.	2F	-sa	.	.	.	.	.	.	.	.
2r	.	2.G	mu-	2.B-y	-sa	1d	-runt:	.	.	.	.
[2GG	ob-	.	.	.	.	.	.	.	.	.	.
.	.	4F	.	4A	.	.	.	.	.	.	.
=175	=175	=175	=175	=175	=175	=175	=175	=175	=175	=175	=175
2GG]	.	2E	.	4B-y	.	0r	.	0r	.	0r	.
.	.	.	.	4G	.	.	.	.	.	.	.
2AA	.	2C	-ne-	1c	mu-	.	.	.	.	.	.
2FF	.	1D	-ra	.	.	.	.	.	.	.	.
2GG	.	.	.	2B-y	-ne-	.	.	.	.	.	.
=176	=176	=176	=176	=176	=176	=176	=176	=176	=176	=176	=176
2.AA	-tu-	2r	.	1c	-ra	0r	.	0r	.	0r	.
.	.	1C	ob-	.	.	.	.	.	.	.	.
4FF	.	.	.	.	.	.	.	.	.	.	.
2FF	-le-	.	.	1A	ob-	.	.	.	.	.	.
[2F	.	2D	-tu-	.	.	.	.	.	.	.	.
=177	=177	=177	=177	=177	=177	=177	=177	=177	=177	=177	=177
2F]	.	2BB-y	-le-	2G	-tu-	0r	.	1r	.	0r	.
2E	.	2C	.	2A	-le-	.	.	.	.	.	.
2.F	.	2.D	.	2B-y	.	.	.	1d	au-	.	.
.	.	.	.	[2A	.	.	.	.	.	.	.
4E	.	4C	.	.	.	.	.	.	.	.	.
=178	=178	=178	=178	=178	=178	=178	=178	=178	=178	=178	=178
2D	.	2BB-y	.	4A]	.	0r	.	1G	.	0r	.
.	.	.	.	4G	.	.	.	.	.	.	.
2E	.	2C	.	1G	.	.	.	.	.	.	.
1C	.	1AA	.	.	.	.	.	1A	.	.	.
.	.	.	.	2F#i	.	.	.	.	.	.	.
=	=	=	=	=	=	=	=	=	=	=	=
*M3/1	*	*M3/1	*	*M3/1	*	*M3/1	*	*M3/1	*	*M3/1	*
*met(3)	*	*met(3)	*	*met(3)	*	*met(3)	*	*met(3)	*	*met(3)	*
0.D	-runt:	[0.GG	-runt:	0G	-runt:	0d	au-	1.B-y	.	1%3r	.
.	.	.	.	.	.	.	.	2c	.	.	.
.	.	.	.	[1B-y	au-	[1G	.	1d	.	.	.
=179	=179	=179	=179	=179	=179	=179	=179	=179	=179	=179	=179
1r	.	0.GG]	.	2B-]	.	2G]	.	0.G	-rum,	1r	.
.	.	.	.	2c	.	2A	.	.	.	.	.
1r	.	.	.	1d	.	2B-y	.	.	.	0dd	au-
.	.	.	.	.	.	2c	.	.	.	.	.
[1G	au-	.	.	1B-y	.	1d	.	.	.	.	.
=180	=180	=180	=180	=180	=180	=180	=180	=180	=180	=180	=180
1G]	.	0C	au-	0c	-rum,	1.e	.	1r	.	1.g	.
1C	.	.	.	.	.	.	.	0g	au-	.	.
.	.	.	.	.	.	2c	.	.	.	2a	.
[1G	.	[1GG	.	1r	.	1d	.	.	.	[1b-y	.
=181	=181	=181	=181	=181	=181	=181	=181	=181	=181	=181	=181
1G]	.	1GG]	.	1r	.	0g	.	1.d	.	1b-]	.
0A	-rum,	0D	-rum,	0d	au-	.	.	.	.	0a	.
.	.	.	.	.	.	.	.	2e	.	.	.
.	.	.	.	.	.	1f	.	1f	.	.	.
=182	=182	=182	=182	=182	=182	=182	=182	=182	=182	=182	=182
1r	.	1%3r	.	1.G	.	0.g	-rum	1e	.	1g	.
0G	au-	.	.	.	.	.	.	1.d	.	1.b-y	.
.	.	.	.	2A	.	.	.	.	.	.	.
.	.	.	.	[1B-y	.	.	.	.	.	.	.
.	.	.	.	.	.	.	.	2c	.	2a	.
=183	=183	=183	=183	=183	=183	=183	=183	=183	=183	=183	=183
1.D	.	1r	.	1B-]	.	1%3r	.	2d	.	1.f	.
.	.	.	.	.	.	.	.	2e	.	.	.
.	.	0D	au-	0A	-rum	.	.	1.f	.	.	.
2E	.	.	.	.	.	.	.	.	.	2g	.
1F	.	.	.	.	.	.	.	.	.	1a	.
.	.	.	.	.	.	.	.	4e	.	.	.
.	.	.	.	.	.	.	.	4f	.	.	.
=184	=184	=184	=184	=184	=184	=184	=184	=184	=184	=184	=184
1E	.	1.GG	.	1%3r	.	1%3r	.	1.g	.	0.b-y	-rum
1.D	.	.	.	.	.	.	.	.	.	.	.
.	.	2AA	.	.	.	.	.	2f	.	.	.
.	.	[1BB-y	.	.	.	.	.	2d	.	.	.
2C	.	.	.	.	.	.	.	2e	.	.	.
=185	=185	=185	=185	=185	=185	=185	=185	=185	=185	=185	=185
2D	.	1BB-]	.	1F	si-	1%3r	.	1.f	.	1%3r	.
2E	.	.	.	.	.	.	.	.	.	.	.
1F	.	0AA	-rum	2A	.	.	.	.	.	.	.
.	.	.	.	2G	.	.	.	2e	.	.	.
1E	.	.	.	2A	.	.	.	2c	.	.	.
.	.	.	.	2B-y	.	.	.	2d	.	.	.
=186	=186	=186	=186	=186	=186	=186	=186	=186	=186	=186	=186
1C	.	1%3r	.	0c	-cut	1%3r	.	1e	.	1g	si-
0F	-rum	.	.	.	.	.	.	1f	-rum	2a	.
.	.	.	.	.	.	.	.	.	.	2g	.
.	.	.	.	[1c	re-	.	.	1F	si-	2a	.
.	.	.	.	.	.	.	.	.	.	2b-y	.
=187	=187	=187	=187	=187	=187	=187	=187	=187	=187	=187	=187
1%3r	.	1%3r	.	2c]	.	1c	si-	2A	.	1cc	-cut
.	.	.	.	2B-y	.	.	.	2G	.	.	.
.	.	.	.	0A	.	2e	.	2A	.	1.cc	re-
.	.	.	.	.	.	2d	.	2B-y	.	.	.
.	.	.	.	.	.	2e	.	1c	-cut	.	.
.	.	.	.	.	.	2f	.	.	.	4b-y	.
.	.	.	.	.	.	.	.	.	.	4a	.
=188	=188	=188	=188	=188	=188	=188	=188	=188	=188	=188	=188
1%3r	.	1%3r	.	1G	-gi	1g	.	1r	.	1b-y	.
.	.	.	.	1A	ma-	2f	.	1c	re-	0a	-gi
.	.	.	.	.	.	2e	.	.	.	.	.
.	.	.	.	1F	.	1f	.	1A	.	.	.
=189	=189	=189	=189	=189	=189	=189	=189	=189	=189	=189	=189
1%3r	.	1%3r	.	1G	.	1d	-cut	1B-y	-gi	1.g	ma-
.	.	.	.	0D	.	0d	re-	0A	ma-	.	.
.	.	.	.	.	.	.	.	.	.	4f#i	.
.	.	.	.	.	.	.	.	.	.	4e	.
.	.	.	.	.	.	.	.	.	.	1f#i	.
=190	=190	=190	=190	=190	=190	=190	=190	=190	=190	=190	=190
1r	.	1C	si-	1.G	.	[0.c	-gi	0.G	-gno,	0.g	-gno,
1r	.	2E	.	.	.	.	.	.	.	.	.
.	.	2D	.	2F	.	.	.	.	.	.	.
1C	si-	2E	.	1G	.	.	.	.	.	.	.
.	.	2F	.	.	.	.	.	.	.	.	.
=191	=191	=191	=191	=191	=191	=191	=191	=191	=191	=191	=191
2E	.	1G	-cut	0.C	-gno,	1c]	.	1%3r	.	1r	.
2D	.	.	.	.	.	.	.	.	.	.	.
2E	.	1G	re-	.	.	1r	.	.	.	1r	.
2F	.	.	.	.	.	.	.	.	.	.	.
1G	-cut	1E	.	.	.	1c	ma-	.	.	1g	thus
=192	=192	=192	=192	=192	=192	=192	=192	=192	=192	=192	=192
1r	.	1F	-gi	1%3r	.	1A	.	1%3r	.	1f	si-
1G	re-	1G	ma-	.	.	1B-y	.	.	.	1d	.
1E	.	1C	.	.	.	2c	.	.	.	1e	-cut
.	.	.	.	.	.	2B-y	.	.	.	.	.
=193	=193	=193	=193	=193	=193	=193	=193	=193	=193	=193	=193
1F	-gi	1D	.	1%3r	.	2A	.	0d	thus	1.a	De-
.	.	.	.	.	.	2G	.	.	.	.	.
0E	ma-	0AA	-gno,	.	.	0A	.	.	.	.	.
.	.	.	.	.	.	.	.	.	.	2g	.
.	.	.	.	.	.	.	.	1c	si-	1e	.
=194	=194	=194	=194	=194	=194	=194	=194	=194	=194	=194	=194
1D	-gno,	1%3r	.	0D	thus,	1.A	-gno	1d	-cut	2f	.
.	.	.	.	.	.	.	.	.	.	2g	.
1r	.	.	.	.	.	.	.	1f	De-	2a	.
.	.	.	.	.	.	2B-y	.	.	.	2f	.
1E	thus,	.	.	1C	si-	1c	.	1e	-o	1g	.
=195	=195	=195	=195	=195	=195	=195	=195	=195	=195	=195	=195
1F	si-	1r	.	1D	-cut	1A	.	0d	ve-	1f	-o
1G	.	1r	.	1G	De-	1r	.	.	.	0e	ve-
1E	-cut	1C	thus	1A	-o	1r	.	1c#i	.	.	.
=196	=196	=196	=196	=196	=196	=196	=196	=196	=196	=196	=196
1F	De-	1BB-y	si-	0B-y	ve-	0d	thus	1d	-ro	1d	-ro,
1G	.	1GG	.	.	.	.	.	1r	.	1b-y	De-
1E	-o	1AA	-cut	[1A	.	1c	si-	1r	.	1cc	-o-
=197	=197	=197	=197	=197	=197	=197	=197	=197	=197	=197	=197
1.F	ve-	1.D	De-	1A]	.	1d	-cut	1%3r	.	1.a	-ve-
.	.	.	.	1d	.	1f	De-	.	.	.	.
2G	.	2C	.	.	.	.	.	.	.	2b-y	.
1A	.	1AA	.	1c	.	1e	-o	.	.	1cc	.
=198	=198	=198	=198	=198	=198	=198	=198	=198	=198	=198	=198
0D	.	2BB-y	.	1d	-ro,	0d	ve-	1%3r	.	0f	-ro,
.	.	2C	.	.	.	.	.	.	.	.	.
.	.	2D	.	1f	thus	.	.	.	.	.	.
.	.	2BB-y	.	.	.	.	.	.	.	.	.
1C	.	1C	.	1e	si-	[1G	.	.	.	1r	.
=199	=199	=199	=199	=199	=199	=199	=199	=199	=199	=199	=199
1D	.	1BB-y	.	0d	-cut	1G]	.	1%3r	.	1%3r	.
0E	.	0AA	-o	.	.	0A	.	.	.	.	.
.	.	.	.	1c#i	De-	.	.	.	.	.	.
=200	=200	=200	=200	=200	=200	=200	=200	=200	=200	=200	=200
1D	.	1.BB-y	ve-	1.d	.	1F	-ro,	1%3r	.	1%3r	.
1G	.	.	.	.	.	1r	.	.	.	.	.
.	.	2C	.	2c	.	.	.	.	.	.	.
1F	.	1D	.	1A	-o	1r	.	.	.	.	.
=201	=201	=201	=201	=201	=201	=201	=201	=201	=201	=201	=201
1G	.	0GG	-ro,	1.B-y	ve-	0G	thus	1r	.	1%3r	.
0D	-ro,	.	.	.	.	.	.	0d	myr-	.	.
.	.	.	.	2G	.	.	.	.	.	.	.
.	.	1r	.	1A	.	1F	si-	.	.	.	.
=202	=202	=202	=202	=202	=202	=202	=202	=202	=202	=202	=202
1r	.	0GG	myr-	0G	-ro,	1G	-cut	0B-y	.	1%3r	.
1G	myr-	.	.	.	.	1B-y	De-	.	.	.	.
[1E	.	[1C	.	1r	.	1A	-o	[1c	.	.	.
=203	=203	=203	=203	=203	=203	=203	=203	=203	=203	=203	=203
1E]	.	1C]	.	1r	.	1G	ve-	1c]	.	0g	thus
0F	.	0D	.	0d	myr-	1d	-ro,	0A	-rham,	.	.
.	.	.	.	.	.	1r	.	.	.	1f	si-
=204	=204	=204	=204	=204	=204	=204	=204	=204	=204	=204	=204
1D	-rham,	1GG	-rham,	0B-y	.	1%3r	.	1%3r	.	1g	-cut
1E-X	myr-	1G	myr-	.	.	.	.	.	.	1b-y	De-
[1C	.	[1E	.	[1c	.	.	.	.	.	1a	-o
=205	=205	=205	=205	=205	=205	=205	=205	=205	=205	=205	=205
1C]	.	1E]	.	1c]	.	1%3r	.	1r	.	0g	ve-
0D	.	0F	.	0A	-rham	.	.	0d	myr-	.	.
.	.	.	.	.	.	.	.	.	.	1f#i	.
=206	=206	=206	=206	=206	=206	=206	=206	=206	=206	=206	=206
1GG	.	1D	.	1%3r	.	1r	.	0B-y	.	0g	-ro,
1G	.	1E	.	.	.	0g	myr-	.	.	.	.
2E	.	[1C	.	.	.	.	.	[1c	.	1r	.
2C	.	.	.	.	.	.	.	.	.	.	.
=207	=207	=207	=207	=207	=207	=207	=207	=207	=207	=207	=207
1.G	.	1C]	.	1%3r	.	1e	.	1c]	.	1r	.
.	.	0D	.	.	.	1.f	.	0A	-rham	0dd	myr-
4F	.	.	.	.	.	.	.	.	.	.	.
4E	.	.	.	.	.	.	.	.	.	.	.
1F	.	.	.	.	.	.	.	.	.	.	.
.	.	.	.	.	.	2e	.	.	.	.	.
=208	=208	=208	=208	=208	=208	=208	=208	=208	=208	=208	=208
1G	.	1GG	-rham	1%3r	.	0d	.	1r	.	1b-y	.
0A	.	1r	.	.	.	.	.	1r	.	1.cc	.
.	.	1r	.	.	.	1c	.	[1A	se-	.	.
.	.	.	.	.	.	.	.	.	.	2b-y	.
=209	=209	=209	=209	=209	=209	=209	=209	=209	=209	=209	=209
1F	.	1%3r	.	1%3r	.	1d	.	1A]	.	0a	.
0G	.	.	.	.	.	0B-y	.	0d	-pul-	.	.
.	.	.	.	.	.	.	.	.	.	1g	.
=	=	=	=	=	=	=	=	=	=	=	=
*M2/1	*	*M2/1	*	*M2/1	*	*M2/1	*	*M2/1	*	*M2/1	*
*met(C|)	*	*met(C|)	*	*met(C|)	*	*met(C|)	*	*met(C|)	*	*met(C|)	*
1E	.	1AA	se-	1r	.	1A	-rham	2.c	-tu-	0a	-rham
.	.	.	.	.	.	.	.	4B-y	.	.	.
2.F	.	1D	-pul-	2r	.	2r	.	4A	.	.	.
.	.	.	.	.	.	.	.	4G	.	.	.
.	.	.	.	2A	se-	[2f	se-	[2A	.	.	.
4E	.	.	.	.	.	.	.	.	.	.	.
=210	=210	=210	=210	=210	=210	=210	=210	=210	=210	=210	=210
2D	.	2BB-y	-tu-	1d	-pul-	2f]	.	4A]	.	1r	.
.	.	.	.	.	.	.	.	4G	.	.	.
2BB-y	.	2GG	-re	.	.	2g	-pul-	2.G	-re	.	.
1C	-rham	1AA	e-	1c	-tu-	2e	-tu-	.	.	1r	.
.	.	.	.	.	.	.	.	4F#i	.	.	.
.	.	.	.	.	.	2c	-re	4F#i	.	.	.
.	.	.	.	.	.	.	.	4E	.	.	.
=211	=211	=211	=211	=211	=211	=211	=211	=211	=211	=211	=211
1r	.	1GG	-ius,	1B-y	-re	1d	e-	1G	.	0r	.
1AA	se-	1r	.	2.c	e-	2c	.	1A	e-	.	.
.	.	.	.	.	.	2e	.	.	.	.	.
.	.	.	.	4B-y	.	.	.	.	.	.	.
=212	=212	=212	=212	=212	=212	=212	=212	=212	=212	=212	=212
1D	-pul-	1r	.	4A	.	2f	.	2F	-ius,	2r	.
.	.	.	.	4G	.	.	.	.	.	.	.
.	.	.	.	2.A	.	2.d	.	1f	se-	2a	se-
2BB-y	-tu-	1r	.	.	.	.	.	.	.	1dd	-pul-
.	.	.	.	4G	.	4c	.	.	.	.	.
2GG	-re	.	.	[2G	.	2B-y	.	2g	-pul-	.	.
=213	=213	=213	=213	=213	=213	=213	=213	=213	=213	=213	=213
1AA	e-	1r	.	4G]	.	1A	-ius,	2e	-tu-	1cc	-tu-
.	.	.	.	4F#i	.	.	.	.	.	.	.
.	.	.	.	4F#i	.	.	.	2c	-re	.	.
.	.	.	.	4E	.	.	.	.	.	.	.
1GG	-ius;	1D	se-	1G	-ius,	1r	.	1d	e-	1b-y	-re
=214	=214	=214	=214	=214	=214	=214	=214	=214	=214	=214	=214
0r	.	1A	-pul-	2r	.	2r	.	2c	.	2.cc	e-
.	.	.	.	1F	se-	2A	se-	1A	.	.	.
.	.	.	.	.	.	.	.	.	.	4b-y	.
.	.	2F	-tu-	.	.	1d	-pul-	.	.	4a	.
.	.	.	.	.	.	.	.	.	.	4g	.
.	.	2D	.	2F	-pul-	.	.	[2d	.	[2a	.
=215	=215	=215	=215	=215	=215	=215	=215	=215	=215	=215	=215
0r	.	1E-X	.	2G	-tu-	2B-y	-tu-	2d]	.	4a]	.
.	.	.	.	.	.	.	.	.	.	4g	.
.	.	.	.	2C	-re	2G	-re	2c	.	1g	.
.	.	1D	.	1F	e-	1A	e-	[1d	-ius,	.	.
.	.	.	.	.	.	.	.	.	.	2f	.
=216	=216	=216	=216	=216	=216	=216	=216	=216	=216	=216	=216
1r	.	1GG	.	0D	.	0G	-ius;	2d]	.	2g	.
.	.	.	.	.	.	.	.	2G	al-	2.b-y	.
1GG	al-	2GG	-re	.	.	.	.	2.d	-le-	.	.
.	.	.	.	.	.	.	.	.	.	4cc	.
.	.	[2G	e-	.	.	.	.	.	.	(2dd	.
.	.	.	.	.	.	.	.	4c	.	.	.
=217	=217	=217	=217	=217	=217	=217	=217	=217	=217	=217	=217
1GG	-le-	4G]	.	0G	-ius;	1r	.	2B-y	.	2dd)	.
.	.	4F	.	.	.	.	.	.	.	.	.
.	.	2E	.	.	.	.	.	2G	.	1cc	.
1GG	-lu-	1D	.	.	.	1g	al-	1d	-lu-	.	.
.	.	.	.	.	.	.	.	.	.	2b-y	.
=218	=218	=218	=218	=218	=218	=218	=218	=218	=218	=218	=218
2.AA	.	1A	-ius;	0r	.	2.e	-le-	1c	-ia,	1.cc	.
4BB-y	.	.	.	.	.	4d	.	.	.	.	.
2C	.	2r	.	.	.	2e	.	1r	.	.	.
[2D	.	2D	al-	.	.	[2f	-lu-	.	.	4b-y	.
.	.	.	.	.	.	.	.	.	.	4a	.
=219	=219	=219	=219	=219	=219	=219	=219	=219	=219	=219	=219
4D]	.	2.A	-le-	1F	al-	4f]	.	2r	.	1a	-ius;
4C	.	.	.	.	.	8eL	.	.	.	.	.
.	.	.	.	.	.	8dJ	.	.	.	.	.
2AA	.	.	.	.	.	2c	.	2c	al-	.	.
.	.	4G	.	.	.	.	.	.	.	.	.
1BB-y	.	2F	.	1F	-le-	2B-y	.	2d	-le-	1r	.
.	.	2D	.	.	.	2d	.	[2f	-lu-	.	.
=220	=220	=220	=220	=220	=220	=220	=220	=220	=220	=220	=220
1AA	-ia,	1A	-lu-	1F	-lu-	1c	-ia,	4f]	.	2r	.
.	.	.	.	.	.	.	.	8eL	.	.	.
.	.	.	.	.	.	.	.	8dJ	.	.	.
.	.	.	.	.	.	.	.	2c	.	2a	al-
[1GG	al-	1D	-ia,	2.G	.	1r	.	2B-y	.	2.b-y	-le-
.	.	.	.	.	.	.	.	[2d	.	.	.
.	.	.	.	4A	.	.	.	.	.	4a	.
=221	=221	=221	=221	=221	=221	=221	=221	=221	=221	=221	=221
2GG]	.	0r	.	2B-y	.	1r	.	4d]	.	4g	.
.	.	.	.	.	.	.	.	4e	.	4f	.
2FF	-le-	.	.	2.c	.	.	.	1f	.	2.a	.
2.C	-lu-	.	.	.	.	1c	al-	.	.	.	.
.	.	.	.	4B-y	.	.	.	.	.	4g	.
.	.	.	.	2G	.	.	.	2e	.	[2g	-lu-
4BB-y	.	.	.	.	.	.	.	.	.	.	.
=222	=222	=222	=222	=222	=222	=222	=222	=222	=222	=222	=222
2AA	.	1C	al-	1A	.	2e	-le-	1c	-ia,	4g]	.
.	.	.	.	.	.	.	.	.	.	4f	.
2FF	.	.	.	.	.	2f	.	.	.	1f	.
1C	.	1C	-le-	1G	-ia,	1g	-lu-	2r	.	.	.
.	.	.	.	.	.	.	.	[2c	al-	2e	.
=223	=223	=223	=223	=223	=223	=223	=223	=223	=223	=223	=223
1FF	-ia,	1C	-lu-	0r	.	2.a	.	2c]	.	1f	-ia,
.	.	.	.	.	.	.	.	2A	-le-	.	.
.	.	.	.	.	.	4g	.	.	.	.	.
2.BB-y	al-	2.D	.	.	.	4f	.	2.B-y	-lu-	[1d	.
.	.	.	.	.	.	4e	.	.	.	.	.
.	.	.	.	.	.	2f	.	.	.	.	.
4C	.	4E	.	.	.	.	.	4A	.	.	.
=224	=224	=224	=224	=224	=224	=224	=224	=224	=224	=224	=224
2D	.	2F	.	1r	.	2d	-ia,	2B-y	.	2d]	.
1C	-le-	2.G	.	.	.	2.e	al-	2c	.	2.g	al-
.	.	.	.	1G	al-	.	.	2G	-ia,	.	.
.	.	4F	.	.	.	4d	.	.	.	4a	.
2BB-y	.	2D	.	.	.	[2d	-le-	[2g	al-	2b-y	.
=225	=225	=225	=225	=225	=225	=225	=225	=225	=225	=225	=225
1C	-lu-	1E	.	1G	-le-	2d]	.	2g]	.	2g	-le-
.	.	.	.	.	.	2c	.	2e	-le-	2cc	-lu-
1GG	-ia,	[1D	-ia,	1G	-lu-	2d	.	1g	-lu-	4b-y	.
.	.	.	.	.	.	.	.	.	.	4a	.
.	.	.	.	.	.	[2B-y	.	.	.	4b-y	.
.	.	.	.	.	.	.	.	.	.	4cc	.
=226	=226	=226	=226	=226	=226	=226	=226	=226	=226	=226	=226
1r	.	1D]	.	2.A	.	4B-]	.	2.f	.	2.dd	.
.	.	.	.	.	.	4A	.	.	.	.	.
.	.	.	.	.	.	1A	-lu-	.	.	.	.
.	.	.	.	4B-y	.	.	.	8eL	.	4cc	.
.	.	.	.	.	.	.	.	8dJ	.	.	.
2r	.	1r	.	2c	.	.	.	4e	.	2a	.
.	.	.	.	.	.	.	.	4f	.	.	.
2GG	al-	.	.	[2d	.	2G	.	[2g	.	[2b-y	.
=227	=227	=227	=227	=227	=227	=227	=227	=227	=227	=227	=227
2.D	-le-	2r	.	4d]	.	1A	-ia,	2g]	.	4b-]	.
.	.	.	.	4c	.	.	.	.	.	4a	.
.	.	2D	al-	2A	.	.	.	2.f	.	2a	-ia,
4C	.	.	.	.	.	.	.	.	.	.	.
2BB-y	.	2.D	-le-	1B-y	.	2r	.	.	.	1dd	al-
.	.	.	.	.	.	.	.	4d	.	.	.
2GG	.	.	.	.	.	2d	al-	[2g	.	.	.
.	.	4E	.	.	.	.	.	.	.	.	.
=228	=228	=228	=228	=228	=228	=228	=228	=228	=228	=228	=228
0D	-lu-	1F	.	0A	.	1d	-le-	2g]	.	2.dd	-le-
.	.	.	.	.	.	.	.	4f#i	.	.	.
.	.	.	.	.	.	.	.	4e	.	8ccL	.
.	.	.	.	.	.	.	.	.	.	8b-yJ	.
.	.	1F	-lu-	.	.	1d	-lu-	1f#i	.	1a	.
=229	=229	=229	=229	=229	=229	=229	=229	=229	=229	=229	=229
[0GGl	-ia.	[0Dl	-ia.	[0Gl	-ia.	[0dl	-ia.	[0gl	-ia.	1.b-y	-lu-
.	.	.	.	.	.	.	.	.	.	4a	.
.	.	.	.	.	.	.	.	.	.	4g	.
=230	=230	=230	=230	=230	=230	=230	=230	=230	=230	=230	=230
00GG]	.	00D]	.	00G]	.	00d]	.	00g]	.	00gl	-ia.
==	==	==	==	==	==	==	==	==	==	==	==
*-	*-	*-	*-	*-	*-	*-	*-	*-	*-	*-	*-
!!!system-decoration: [*]
!!!RDF**kern: i = editorial accidental
!!!RDF**kern: l = terminal long
!!!ENC: Benjamin Ory
!!!END: 2021/10/9
!!!EED: Benjamin Ory
!!!EEV: 2021/10/09
!!!YEC: Copyright 2021 Benjamin Ory, All Rights Reserved
!!!ONB: Translated from MusicXML on 2021/10/09
